!!!!SEGMENT: pl-cz--iii-456--004_kuci-mateusz--symfonia-d-presto.krn
!!!cenid: 17xx:232
!!!COM: Kuci, Mateusz
!!!COM-rismid: pe30017582
!!!CDT:
!!!CNT:
!!!OPR: Symfonia D
!!!OTL: Presto
!!!OMV: 004
!!!PDT:
!!!AGN: Secular
!!!SMS-siglum: PL-CZ
!!!SMS-shelfmark: III-456
!!!SMS-shelfwork: 001-004 M
!!!NIFC-rismid:
!!!URL-scan: http://repozytorium.nifc.pl/skany/pl-cz-nut--iii-456
!!!ONB-nifc:
**kern	**dynam	**kern	**dynam	**kern	**dynam	**kern	**dynam	**kern	**dynam	**kern	**dynam	**kern	**dynam	**kern	**dynam
*part8	*part8	*part7	*part7	*part6	*part6	*part5	*part5	*part4	*part4	*part3	*part3	*part2	*part2	*part1	*part1
*staff8	*	*staff7	*	*staff6	*	*staff5	*	*staff4	*	*staff3	*	*staff2	*	*staff1	*
*group3	*	*group3	*	*group3	*	*group3	*	*group2	*	*group2	*	*group1	*	*group1	*
*Iempty	*	*Iviola	*	*Ivioln	*	*Ivioln	*	*Iempty	*	*Iempty	*	*Ioboe	*	*Ioboe	*
*I"Baſso	*	*I"Viola	*	*I"Violino Secondo	*	*I"Violino Primo	*	*I"Cornu secondo Toni D#	*	*I"Cornu Primo Toni D#	*	*I"Oboe Secondo	*	*I"Oboe Primo	*
*I'B	*	*I'Vla	*	*I'Vn II	*	*I'Vn I	*	*I'Cor II	*	*I'Cor I	*	*I'Ob II	*	*I'Ob I	*
*clefF4	*	*clefC3	*	*clefG2	*	*clefG2	*	*clefG2	*	*clefG2	*	*clefG2	*	*clefG2	*
*	*	*	*	*	*	*	*	*ITrd-1c-2	*	*ITrd-1c-2	*	*	*	*	*
*k[f#c#]	*	*k[f#c#]	*	*k[f#c#]	*	*k[f#c#]	*	*k[f#c#]	*	*k[f#c#]	*	*k[f#c#]	*	*k[f#c#]	*
*D:	*	*D:	*	*D:	*	*D:	*	*	*	*	*	*D:	*	*D:	*
*M3/8	*	*M3/8	*	*M3/8	*	*M3/8	*	*M3/8	*	*M3/8	*	*M3/8	*	*M3/8	*
*>[AABB]	*	*>[AABB]	*	*>[AABB]	*	*>[AABB]	*	*>[AABB]	*	*>[AABB]	*	*>[AABB]	*	*>[AABB]	*
=1	=1	=1	=1	=1	=1	=1	=1	=1	=1	=1	=1	=1	=1	=1	=1
*>A	*	*>A	*	*>A	*	*>A	*	*>A	*	*>A	*	*>A	*	*>A	*
!	!	!	!	!	!	!LO:TX:a:t=Presto	!	!LO:TX:a:t=Presto	!	!LO:TX:a:t=Presto	!	!LO:TX:a:t=Presto	!	!LO:TX:a:t=26	!
!LO:TX:a:t=Presto	!	!LO:TX:a:t=Presto	!	!LO:TX:a:t=Presto	!	!	!	!LO:TX:a:t=26	!	!LO:TX:a:t=26	!	!LO:TX:a:t=26	!	!LO:TX:a:B:t=Presto	!
!	!	!	!	!	!	!	!	!LO:TX:a:t=in D	!	!LO:N:vis=00	!	!LO:N:vis=00	!	!LO:N:vis=00	!
!	!	!	!	!	!	!	!LO:DY:t=pp:	!LO:N:vis=00	!	!	!	!	!	!	!
[4.D\	p	[4.f#\	p	[4.a/	pp	8ff#\L	pp	1.r	.	1.r	.	1.r	.	1.r	.
.	.	.	.	.	.	8aa\	.	.	.	.	.	.	.	.	.
.	.	.	.	.	.	8gg\J	.	.	.	.	.	.	.	.	.
=2	=2	=2	=2	=2	=2	=2	=2	=2	=2	=2	=2	=2	=2	=2	=2
4.D\]	.	4.f#\]	.	4.a/]	.	8ff#\L	.	.	.	.	.	.	.	.	.
.	.	.	.	.	.	8ee\	.	.	.	.	.	.	.	.	.
.	.	.	.	.	.	8dd\J	.	.	.	.	.	.	.	.	.
=3	=3	=3	=3	=3	=3	=3	=3	=3	=3	=3	=3	=3	=3	=3	=3
.	.	.	.	.	.	8qqdd/	.	.	.	.	.	.	.	.	.
[4.E\	.	8g'\L	.	8a/L	.	8cc#\L	.	.	.	.	.	.	.	.	.
.	.	8g'\	.	8a/	.	8cc#\	.	.	.	.	.	.	.	.	.
.	.	8g'\J	.	8a/J	.	8cc#\J	.	.	.	.	.	.	.	.	.
=4	=4	=4	=4	=4	=4	=4	=4	=4	=4	=4	=4	=4	=4	=4	=4
8E\]	.	4g\	.	4a/	.	4cc#\	.	.	.	.	.	.	.	.	.
8r	.	.	.	.	.	.	.	.	.	.	.	.	.	.	.
8r	.	8r	.	8r	.	8r	.	.	.	.	.	.	.	.	.
=5	=5	=5	=5	=5	=5	=5	=5	=5	=5	=5	=5	=5	=5	=5	=5
!	!	!	!	!	!	!	!	!LO:N:vis=00	!	!LO:N:vis=00	!	!LO:N:vis=00	!	!LO:N:vis=00	!
4.C#X/	.	[4.e\	.	[4.a/	.	8gg\L	.	1.r	.	1.r	.	1.r	.	1.r	.
.	.	.	.	.	.	8bb\	.	.	.	.	.	.	.	.	.
.	.	.	.	.	.	8aa\J	.	.	.	.	.	.	.	.	.
=6	=6	=6	=6	=6	=6	=6	=6	=6	=6	=6	=6	=6	=6	=6	=6
4c#\	.	4.e\]	.	4.a/]	.	8gg\L	.	.	.	.	.	.	.	.	.
.	.	.	.	.	.	8ff#\	.	.	.	.	.	.	.	.	.
8r	.	.	.	.	.	8ee\J	.	.	.	.	.	.	.	.	.
=7	=7	=7	=7	=7	=7	=7	=7	=7	=7	=7	=7	=7	=7	=7	=7
.	.	.	.	.	.	8qqee/	.	.	.	.	.	.	.	.	.
8d\L	.	8f#\L	.	8a/L	.	8dd\L	.	.	.	.	.	.	.	.	.
8A\	.	8f#\	.	8a/	.	8dd\	.	.	.	.	.	.	.	.	.
8F#\J	.	8f#\J	.	8a/J	.	8dd\J	.	.	.	.	.	.	.	.	.
=8	=8	=8	=8	=8	=8	=8	=8	=8	=8	=8	=8	=8	=8	=8	=8
4D\	.	8f#\L	.	8a/L	.	4dd\	.	.	.	.	.	.	.	.	.
.	.	(8d\	.	8f#/	.	.	.	.	.	.	.	.	.	.	.
8r	.	8e\J)	.	8g/J	.	8r	.	.	.	.	.	.	.	.	.
=9	=9	=9	=9	=9	=9	=9	=9	=9	=9	=9	=9	=9	=9	=9	=9
!LO:TX:a:t=1	!	!	!	!	!	!	!	!LO:N:vis=00	!	!LO:N:vis=00	!	!LO:N:vis=00	!	!LO:N:vis=00	!
4.r	.	4.f#\	.	4.a/	.	8ff#\L	.	1.r	.	1.r	.	1.r	.	1.r	.
.	.	.	.	.	.	8aa\	.	.	.	.	.	.	.	.	.
.	.	.	.	.	.	8gg\J	.	.	.	.	.	.	.	.	.
=10	=10	=10	=10	=10	=10	=10	=10	=10	=10	=10	=10	=10	=10	=10	=10
(4.A\	.	4.f#\	.	4.a/	.	(8ff#\L	.	.	.	.	.	.	.	.	.
.	.	.	.	.	.	8ee\)	.	.	.	.	.	.	.	.	.
.	.	.	.	.	.	8dd#X`\J	.	.	.	.	.	.	.	.	.
!	!	!	!	!	!	!LO:LB:g=original	!	!	!	!	!	!	!	!	!
=11	=11	=11	=11	=11	=11	=11	=11	=11	=11	=11	=11	=11	=11	=11	=11
4.G\	.	4.g\	.	4.b\	.	(8ee\L	.	.	.	.	.	.	.	.	.
.	.	.	.	.	.	8dd#X\)	.	.	.	.	.	.	.	.	.
.	.	.	.	.	.	8ee`\J	.	.	.	.	.	.	.	.	.
=12	=12	=12	=12	=12	=12	=12	=12	=12	=12	=12	=12	=12	=12	=12	=12
4.D#X\)	.	8f#\L	.	4.b\	.	(8ff#\L	.	.	.	.	.	.	.	.	.
.	.	8e\	.	.	.	8ee\)	.	.	.	.	.	.	.	.	.
.	.	8f#\J	.	.	.	8ff#`\J	.	.	.	.	.	.	.	.	.
=13	=13	=13	=13	=13	=13	=13	=13	=13	=13	=13	=13	=13	=13	=13	=13
!	!	!	!	!	!	!	!	!LO:N:vis=00	!	!LO:N:vis=00	!	!LO:N:vis=00	!	!LO:N:vis=00	!
4E\	.	8g\L	.	4b\	.	(8gg\L	.	1.r	.	1.r	.	1.r	.	1.r	.
.	.	8f#\	.	.	.	8ff#\)	.	.	.	.	.	.	.	.	.
8r	.	8g\J	.	8r	.	8gg`\J	.	.	.	.	.	.	.	.	.
!LO:LB:g=original	!	!LO:LB:g=original	!	!	!	!	!	!	!	!	!	!	!	!	!
=14	=14	=14	=14	=14	=14	=14	=14	=14	=14	=14	=14	=14	=14	=14	=14
4.G\	.	8c#\L	.	4.a/	.	(8cc#X\L	.	.	.	.	.	.	.	.	.
.	.	8B\	.	.	.	8b\)	.	.	.	.	.	.	.	.	.
.	.	8c#\J	.	.	.	8cc#`\J	.	.	.	.	.	.	.	.	.
=15	=15	=15	=15	=15	=15	=15	=15	=15	=15	=15	=15	=15	=15	=15	=15
4.F#\	.	(8d\L	.	4.a/	.	(8dd\L	.	.	.	.	.	.	.	.	.
.	.	8c#\)	.	.	.	8cc#\)	.	.	.	.	.	.	.	.	.
.	.	8d`\J	.	.	.	8dd`\J	.	.	.	.	.	.	.	.	.
!	!	!	!	!LO:LB:g=original	!	!	!	!	!	!	!	!	!	!	!
=16	=16	=16	=16	=16	=16	=16	=16	=16	=16	=16	=16	=16	=16	=16	=16
4.C#X/	.	(8e\L	.	4.a/	.	(8ee\L	.	.	.	.	.	.	.	.	.
.	.	8d\)	.	.	.	8dd\)	.	.	.	.	.	.	.	.	.
.	.	8e`\J	.	.	.	8ee`\J	.	.	.	.	.	.	.	.	.
=17	=17	=17	=17	=17	=17	=17	=17	=17	=17	=17	=17	=17	=17	=17	=17
!	!	!	!	!	!	!	!	!LO:N:vis=00	!	!LO:N:vis=00	!	!LO:N:vis=00	!	!LO:N:vis=00	!
4.D\	.	(8f#\L	.	4.a/	.	(8ff#\L	.	1.r	.	1.r	.	1.r	.	1.r	.
.	.	8e\)	.	.	.	8ee\)	.	.	.	.	.	.	.	.	.
.	.	8f#'\J	.	.	.	8ff#`\J	.	.	.	.	.	.	.	.	.
=18	=18	=18	=18	=18	=18	=18	=18	=18	=18	=18	=18	=18	=18	=18	=18
!	!	!	!	!	!LO:DY:a	!	!	!	!	!	!	!	!	!	!
4.F#\	.	4.a\	.	8a/L	pp	(8aa\L	.	.	.	.	.	.	.	.	.
.	.	.	.	8g/	.	8gg\)	.	.	.	.	.	.	.	.	.
.	.	.	.	8f#/J	.	8ff#`\J	.	.	.	.	.	.	.	.	.
=19	=19	=19	=19	=19	=19	=19	=19	=19	=19	=19	=19	=19	=19	=19	=19
4.G\	.	4.b\	.	(8e/L	.	(8ee\L	.	.	.	.	.	.	.	.	.
.	.	.	.	8d#X/	.	8dd#X\)	.	.	.	.	.	.	.	.	.
.	.	.	.	8e/J)	.	8ee'\J	.	.	.	.	.	.	.	.	.
=20	=20	=20	=20	=20	=20	=20	=20	=20	=20	=20	=20	=20	=20	=20	=20
8r	.	8r	.	8e'/L	.	8ee`\L	.	.	.	.	.	.	.	.	.
8G\L	.	(8B'/L	.	(8b/	.	8bb\	.	.	.	.	.	.	.	.	.
8G\J	.	8B'/J)	.	8g/J)	.	8gg\J	.	.	.	.	.	.	.	.	.
=21	=21	=21	=21	=21	=21	=21	=21	=21	=21	=21	=21	=21	=21	=21	=21
!	!	!	!	!	!	!	!	!LO:N:vis=00	!	!LO:N:vis=00	!	!LO:N:vis=00	!	!LO:N:vis=00	!
4G\	.	4B/	.	8e/L	.	(8ee\L	.	1.r	.	1.r	.	1.r	.	1.r	.
.	.	.	.	8d#X/	.	8dd#X\	.	.	.	.	.	.	.	.	.
8r	.	8r	.	8e/J	.	8ee\J)	.	.	.	.	.	.	.	.	.
!	!	!	!	!	!	!LO:LB:g=original	!	!	!	!	!	!	!	!	!
=22	=22	=22	=22	=22	=22	=22	=22	=22	=22	=22	=22	=22	=22	=22	=22
8r	.	8r	.	(8e/L	.	8ee`\L	.	.	.	.	.	.	.	.	.
8G\L	.	(8B'/L	.	8b/	.	8bb\	.	.	.	.	.	.	.	.	.
8G\J	.	8B'/J)	.	8g/J)	.	8gg\J	.	.	.	.	.	.	.	.	.
=23	=23	=23	=23	=23	=23	=23	=23	=23	=23	=23	=23	=23	=23	=23	=23
(4.G\	.	[4.B/	.	8e/L	.	8ee\L	.	.	.	.	.	.	.	.	.
.	.	.	.	8d#X/	.	8dd#X\	.	.	.	.	.	.	.	.	.
.	.	.	.	8e/J	.	8ee\J	.	.	.	.	.	.	.	.	.
=24	=24	=24	=24	=24	=24	=24	=24	=24	=24	=24	=24	=24	=24	=24	=24
4.G#X\)	.	4.B/]	.	8e/L	.	(8ee\L	.	.	.	.	.	.	.	.	.
.	.	.	.	8f#/	.	8ff#\)	.	.	.	.	.	.	.	.	.
.	.	.	.	8d/J	.	8ddn`\J	.	.	.	.	.	.	.	.	.
=25	=25	=25	=25	=25	=25	=25	=25	=25	=25	=25	=25	=25	=25	=25	=25
!	!	!	!	!	!	!	!	!LO:N:vis=0	!	!LO:N:vis=0	!	!LO:N:vis=0	!	!LO:N:vis=0	!
4.A\	.	4.A/	.	8c#/L	.	8cc#\L	.	2.r	.	2.r	.	2.r	.	2.r	.
.	.	.	.	8e/	.	8ee\	.	.	.	.	.	.	.	.	.
.	.	.	.	8d/J	.	8ddn\J	.	.	.	.	.	.	.	.	.
=26	=26	=26	=26	=26	=26	=26	=26	=26	=26	=26	=26	=26	=26	=26	=26
!	!	!LO:TX:a:t=problem:brak kreski taktowej	!	!	!	!	!	!	!	!	!	!	!	!	!
4.AA/	.	4.a\	.	8c#/L	.	8cc#\L	.	.	.	.	.	.	.	.	.
.	.	.	.	8B/	.	8b\	.	.	.	.	.	.	.	.	.
.	.	.	.	8A/J	.	8a\J	.	.	.	.	.	.	.	.	.
=27	=27	=27	=27	=27	=27	=27	=27	=27	=27	=27	=27	=27	=27	=27	=27
*	*	*	*	*tremolo	*	*	*	*	*	*	*	*	*	*	*
!	!	!	!	!	!	!	!LO:DY:t=fortiſ	!	!	!	!	!	!LO:DY:t=fortiſ:	!	!
8D\L	f	8f#\L	f	16a/LL	.	8ff#\L	ff	4.d/	f	4.dd\	f	8f#/L	ff	8ff#\L	f
.	.	.	.	16a/	.	.	.	.	.	.	.	.	.	.	.
8D\	.	8f#\	.	16a/	.	8aa\	.	.	.	.	.	8a/	.	8aa\	.
.	.	.	.	16a/	.	.	.	.	.	.	.	.	.	.	.
8D\J	.	8g\J	.	16a/	.	8gg\J	.	.	.	.	.	8g/J	.	8gg\J	.
.	.	.	.	16a/JJ	.	.	.	.	.	.	.	.	.	.	.
!	!	!LO:LB:g=original	!	!	!	!	!	!	!	!	!	!	!	!	!
=28	=28	=28	=28	=28	=28	=28	=28	=28	=28	=28	=28	=28	=28	=28	=28
*tremolo	*	*	*	*	*	*	*	*	*	*	*	*	*	*	*
8D\L	.	8a\L	.	16a/LL	.	8ff#\L	.	4.d/	.	4.dd\	.	8f#/L	.	8ff#\L	.
.	.	.	.	16a/	.	.	.	.	.	.	.	.	.	.	.
8D\	.	8g\	.	16a/	.	8ee\	.	.	.	.	.	8e/	.	8ee\	.
.	.	.	.	16a/	.	.	.	.	.	.	.	.	.	.	.
8D\J	.	8f#\J	.	16a/	.	8dd\J	.	.	.	.	.	8d/J	.	8dd\J	.
.	.	.	.	16a/JJ	.	.	.	.	.	.	.	.	.	.	.
!	!	!	!	!LO:LB:g=original	!	!	!	!	!	!	!	!	!	!	!
=29	=29	=29	=29	=29	=29	=29	=29	=29	=29	=29	=29	=29	=29	=29	=29
*	*	*	*	*	*	*	*	*	*	*	*	*	*	*	*
.	.	.	.	.	.	8qqdd/	.	.	.	.	.	.	.	8qqdd/	.
8E\L	.	8g\L	.	16a/LL	.	8cc#\L	.	4.a/	.	4.ee\	.	8e/L	.	8cc#\L	.
.	.	.	.	16a/	.	.	.	.	.	.	.	.	.	.	.
8E\	.	8g\	.	16a/	.	8cc#\	.	.	.	.	.	8e/	.	8cc#\	.
.	.	.	.	16a/	.	.	.	.	.	.	.	.	.	.	.
8E\J	.	8g\J	.	16a/	.	8cc#\J	.	.	.	.	.	8g/J	.	8cc#\J	.
.	.	.	.	16a/JJ	.	.	.	.	.	.	.	.	.	.	.
=30	=30	=30	=30	=30	=30	=30	=30	=30	=30	=30	=30	=30	=30	=30	=30
*	*	*tremolo	*	*	*	*	*	*	*	*	*	*	*	*	*
8E\L	.	8g\L	.	16a/LL	.	4cc#\	.	4a/	.	4ee\	.	4g/	.	4cc#\	.
.	.	.	.	16a/	.	.	.	.	.	.	.	.	.	.	.
8E\	.	8g\	.	16a/	.	.	.	.	.	.	.	.	.	.	.
.	.	.	.	16a/	.	.	.	.	.	.	.	.	.	.	.
8E\J	.	8g\J	.	16a/	.	8r	.	8r	.	8r	.	8r	.	8r	.
.	.	.	.	16a/JJ	.	.	.	.	.	.	.	.	.	.	.
*Xtremolo	*	*Xtremolo	*	*	*	*	*	*	*	*	*	*	*	*	*
!LO:LB:g=original	!	!	!	!	!	!	!	!	!	!	!	!	!	!	!
=31	=31	=31	=31	=31	=31	=31	=31	=31	=31	=31	=31	=31	=31	=31	=31
8C#/L	.	8g`\L	.	16a/LL	.	8gg\L	.	4.a/	.	4.ee\	.	8g/L	.	8gg\L	.
.	.	.	.	16a/	.	.	.	.	.	.	.	.	.	.	.
8C#/	.	8g\	.	16a/	.	8bb\	.	.	.	.	.	8b/	.	8bb\	.
.	.	.	.	16a/	.	.	.	.	.	.	.	.	.	.	.
8C#/J	.	8a\J	.	16a/	.	8aa\J	.	.	.	.	.	8a/J	.	8aa\J	.
.	.	.	.	16a/JJ	.	.	.	.	.	.	.	.	.	.	.
=32	=32	=32	=32	=32	=32	=32	=32	=32	=32	=32	=32	=32	=32	=32	=32
.	.	.	.	.	.	8qqaa/	.	.	.	.	.	.	.	8qqaa/	.
*tremolo	*	*	*	*	*	*	*	*	*	*	*	*	*	*	*
8C#/L	.	(8b\L	.	16a/LL	.	8gg\L	.	4.a/	.	4.aa\	.	8g/L	.	8gg\L	.
.	.	.	.	16a/	.	.	.	.	.	.	.	.	.	.	.
8C#/	.	8a\)	.	16a/	.	8ff#\	.	.	.	.	.	8f#/	.	8ff#\	.
.	.	.	.	16a/	.	.	.	.	.	.	.	.	.	.	.
8C#/J	.	8g`\J	.	16a/	.	8ee\J	.	.	.	.	.	8e/J	.	8ee\J	.
.	.	.	.	16a/JJ	.	.	.	.	.	.	.	.	.	.	.
!	!	!	!	!	!	!LO:LB:g=original	!	!	!	!	!	!	!	!	!
=33	=33	=33	=33	=33	=33	=33	=33	=33	=33	=33	=33	=33	=33	=33	=33
.	.	.	.	.	.	8qqee/	.	.	.	.	.	.	.	8qqee/	.
8D\L	.	8f#\L	.	16a/LL	.	8dd\L	.	4dd\	.	4.aa\	.	8f#/L	.	8dd\L	.
.	.	.	.	16a/	.	.	.	.	.	.	.	.	.	.	.
8D\	.	8f#\	.	16a/	.	8dd\	.	.	.	.	.	8a/	.	8dd\	.
.	.	.	.	16a/	.	.	.	.	.	.	.	.	.	.	.
8D\J	.	8a\J	.	16a/	.	8dd\J	.	8dd\	.	.	.	8a/J	.	8dd\J	.
.	.	.	.	16a/JJ	.	.	.	.	.	.	.	.	.	.	.
!	!	!	!	!	!	!	!	!	!	!	!	!	!	!LO:LB:g=original	!
=34	=34	=34	=34	=34	=34	=34	=34	=34	=34	=34	=34	=34	=34	=34	=34
8D\L	.	4f#\	.	16a/LL	.	4dd\	.	4dd\	.	4aa\	.	4a/	.	4dd\	.
.	.	.	.	16a/	.	.	.	.	.	.	.	.	.	.	.
8F#\	.	.	.	16a/	.	.	.	.	.	.	.	.	.	.	.
.	.	.	.	16a/	.	.	.	.	.	.	.	.	.	.	.
8A\J	.	8r	.	16a/	.	8r	.	8r	.	8r	.	8r	.	8r	.
.	.	.	.	16a/JJ	.	.	.	.	.	.	.	.	.	.	.
=35	=35	=35	=35	=35	=35	=35	=35	=35	=35	=35	=35	=35	=35	=35	=35
!	!	!	!	!LO:TX:a:t=1	!	!	!	!	!	!	!	!	!	!	!
8F#\L	.	8a\L	.	16dd\LL	.	4ddd\	.	4d/	.	4.dd\	.	4.a/	.	4.dd\	.
.	.	.	.	16dd\	.	.	.	.	.	.	.	.	.	.	.
8F#\	.	8a\	.	16dd\	.	.	.	.	.	.	.	.	.	.	.
.	.	.	.	16dd\	.	.	.	.	.	.	.	.	.	.	.
8F#\J	.	8a\J	.	16dd\	.	8dd\	.	8r	.	.	.	.	.	.	.
.	.	.	.	16dd\JJ	.	.	.	.	.	.	.	.	.	.	.
!	!	!	!	!	!	!	!	!LO:LB:g=original	!	!LO:LB:g=original	!	!	!	!	!
=36	=36	=36	=36	=36	=36	=36	=36	=36	=36	=36	=36	=36	=36	=36	=36
*	*	*tremolo	*	*	*	*	*	*	*	*	*	*	*	*	*
!	!	!	!	!LO:TX:a:t=2	!	!	!	!	!	!	!	!	!	!	!
8F#\L	.	8a\L	.	16dd\LL	.	4dd\	.	4d/	.	4.dd\	.	4.a/	.	4dd\	.
.	.	.	.	16dd\	.	.	.	.	.	.	.	.	.	.	.
8F#\	.	8a\	.	16dd\	.	.	.	.	.	.	.	.	.	.	.
.	.	.	.	16dd\	.	.	.	.	.	.	.	.	.	.	.
8F#\J	.	8a\J	.	16dd\	.	8ff#\	.	8r	.	.	.	.	.	8ff#\	.
.	.	.	.	16dd\JJ	.	.	.	.	.	.	.	.	.	.	.
!	!	!	!	!	!	!	!	!	!	!	!	!LO:LB:g=original	!	!	!
=37	=37	=37	=37	=37	=37	=37	=37	=37	=37	=37	=37	=37	=37	=37	=37
.	.	.	.	.	.	8qqff#/	.	.	.	.	.	.	.	.	.
!	!	!	!	!LO:TX:a:t=3	!	!	!	!	!	!	!	!	!	!	!
8Gn\L	.	8b\L	.	16dd\LL	.	8ee\L	.	4d/	.	4.dd\	.	4.b\	.	(8ee\L	.
.	.	.	.	16dd\	.	.	.	.	.	.	.	.	.	.	.
8G\	.	8b\	.	16dd\	.	8dd#X\	.	.	.	.	.	.	.	8dd#X\	.
.	.	.	.	16dd\	.	.	.	.	.	.	.	.	.	.	.
8G\J	.	8b\J	.	16dd\	.	8ee\J	.	8r	.	.	.	.	.	8ee\J)	.
.	.	.	.	16dd\JJ	.	.	.	.	.	.	.	.	.	.	.
=38	=38	=38	=38	=38	=38	=38	=38	=38	=38	=38	=38	=38	=38	=38	=38
!	!	!	!	!LO:TX:a:t=4	!	!	!	!	!	!	!	!	!	!	!
8G\L	.	8b\L	.	16dd\LL	.	4ee\	.	4d/	.	4.dd\	.	4.b\	.	4.ee\	.
.	.	.	.	16dd\	.	.	.	.	.	.	.	.	.	.	.
8G\	.	8b\	.	16dd\	.	.	.	.	.	.	.	.	.	.	.
.	.	.	.	16dd\	.	.	.	.	.	.	.	.	.	.	.
8G\J	.	8b\J	.	16dd\	.	8r	.	8r	.	.	.	.	.	.	.
.	.	.	.	16dd\JJ	.	.	.	.	.	.	.	.	.	.	.
=39	=39	=39	=39	=39	=39	=39	=39	=39	=39	=39	=39	=39	=39	=39	=39
!	!	!	!	!LO:TX:a:t=5	!	!	!	!	!	!	!	!	!	!	!
8A\L	.	8a\L	.	16dd\LL	.	4ddd\	.	4d/	.	4.dd\	.	4.dd\	.	4.ff#\	.
.	.	.	.	16dd\	.	.	.	.	.	.	.	.	.	.	.
8A\	.	8a\	.	16dd\	.	.	.	.	.	.	.	.	.	.	.
.	.	.	.	16dd\	.	.	.	.	.	.	.	.	.	.	.
8A\J	.	8a\J	.	16dd\	.	8ff#\	.	8r	.	.	.	.	.	.	.
.	.	.	.	16dd\JJ	.	.	.	.	.	.	.	.	.	.	.
=40	=40	=40	=40	=40	=40	=40	=40	=40	=40	=40	=40	=40	=40	=40	=40
!	!	!	!	!LO:TX:a:t=6	!	!	!	!	!	!	!	!	!	!	!
8A\L	.	8a\L	.	16dd\LL	.	4ff#\	.	4.d/	.	4.dd\	.	4.dd\	.	4ff#\	.
.	.	.	.	16dd\	.	.	.	.	.	.	.	.	.	.	.
8A\	.	8a\	.	16dd\	.	.	.	.	.	.	.	.	.	.	.
.	.	.	.	16dd\	.	.	.	.	.	.	.	.	.	.	.
8A\J	.	8a\J	.	16dd\	.	8aa\	.	.	.	.	.	.	.	8aa\	.
.	.	.	.	16dd\JJ	.	.	.	.	.	.	.	.	.	.	.
=41	=41	=41	=41	=41	=41	=41	=41	=41	=41	=41	=41	=41	=41	=41	=41
.	.	.	.	.	.	8qqaa/	.	.	.	.	.	.	.	8qqaa/	.
!	!	!	!	!LO:TX:a:t=7	!	!	!	!	!	!	!	!	!	!	!
8Bn\L	.	8b\L	.	16dd\LL	.	8gg\L	.	4.d/	.	4.dd\	.	4.dd\	.	8gg\L	.
.	.	.	.	16dd\	.	.	.	.	.	.	.	.	.	.	.
8B\	.	8b\	.	16dd\	.	8ff#\	.	.	.	.	.	.	.	8ff#\	.
.	.	.	.	16dd\	.	.	.	.	.	.	.	.	.	.	.
8B\J	.	8b\J	.	16dd\	.	8gg\J	.	.	.	.	.	.	.	8gg\J	.
.	.	.	.	16dd\JJ	.	.	.	.	.	.	.	.	.	.	.
=42	=42	=42	=42	=42	=42	=42	=42	=42	=42	=42	=42	=42	=42	=42	=42
.	.	.	.	.	.	8qqaa/	.	.	.	.	.	.	.	8qqaa/	.
!	!	!	!	!LO:TX:a:t=8	!	!	!	!	!	!	!	!	!	!	!
8B\L	.	8b\L	.	16dd\LL	.	4gg\	.	4.d/	.	4.dd\	.	4dd\	.	4gg\	.
.	.	.	.	16dd\	.	.	.	.	.	.	.	.	.	.	.
8B\	.	8b\	.	16dd\	.	.	.	.	.	.	.	.	.	.	.
.	.	.	.	16dd\	.	.	.	.	.	.	.	.	.	.	.
8B\J	.	8b\J	.	16dd\	.	8r	.	.	.	.	.	8r	.	8r	.
.	.	.	.	16dd\JJ	.	.	.	.	.	.	.	.	.	.	.
!	!	!LO:LB:g=original	!	!LO:LB:g=original	!	!	!	!	!	!	!	!	!	!	!
=43	=43	=43	=43	=43	=43	=43	=43	=43	=43	=43	=43	=43	=43	=43	=43
!	!	!	!	!LO:TX:a:t=9	!	!	!	!	!	!	!	!	!	!	!
8B-X\L	.	8b-X\L	.	16dd\LL	.	8r	.	4.d/	.	4.dd\	.	4.dd\	.	4.dddn\	.
.	.	.	.	16dd\	.	.	.	.	.	.	.	.	.	.	.
8B-X\	.	8b-X\	.	16dd\	.	8ddd\L	.	.	.	.	.	.	.	.	.
.	.	.	.	16dd\	.	.	.	.	.	.	.	.	.	.	.
8B-X\J	.	8b-X\J	.	16dd\	.	8ddd\J	.	.	.	.	.	.	.	.	.
.	.	.	.	16dd\JJ	.	.	.	.	.	.	.	.	.	.	.
!	!	!	!	!	!	!LO:LB:g=original	!	!	!	!	!	!	!	!	!
=44	=44	=44	=44	=44	=44	=44	=44	=44	=44	=44	=44	=44	=44	=44	=44
!	!	!LO:TX:a:t=sic:s=4.b-	!	!LO:TX:a:t=10	!	!	!	!	!	!	!	!	!	!	!
8B-X\L	.	8b\L	.	16dd\LL	.	4ddd\	.	4.d/	.	4dd\	.	4dd\	.	4ddd\	.
.	.	.	.	16dd\	.	.	.	.	.	.	.	.	.	.	.
8B-X\	.	8b\	.	16dd\	.	.	.	.	.	.	.	.	.	.	.
.	.	.	.	16dd\	.	.	.	.	.	.	.	.	.	.	.
8B-X\J	.	8b\J	.	16dd\	.	8dd\	.	.	.	8r	.	8ffn\	.	8dd\	.
.	.	.	.	16dd\JJ	.	.	.	.	.	.	.	.	.	.	.
=45	=45	=45	=45	=45	=45	=45	=45	=45	=45	=45	=45	=45	=45	=45	=45
!	!	!	!	!LO:TX:a:t=11	!	!	!	!	!	!	!	!	!	!	!
8A\L	.	8a\L	.	16dd\LL	.	8r	.	4d/	.	4.dd\	.	4.dd\	.	4.ddd\	.
.	.	.	.	16dd\	.	.	.	.	.	.	.	.	.	.	.
8A\	.	8a\	.	16dd\	.	8ddd\L	.	.	.	.	.	.	.	.	.
.	.	.	.	16dd\	.	.	.	.	.	.	.	.	.	.	.
8A\J	.	8a\J	.	16dd\	.	8ddd\J	.	8r	.	.	.	.	.	.	.
.	.	.	.	16dd\JJ	.	.	.	.	.	.	.	.	.	.	.
=46	=46	=46	=46	=46	=46	=46	=46	=46	=46	=46	=46	=46	=46	=46	=46
!	!	!	!	!LO:TX:a:t=12	!	!	!	!	!	!	!	!	!	!	!
8A\L	.	8a\L	.	16dd\LL	.	4ddd\	.	4.d/	.	4dd\	.	4dd\	.	4ddd\	.
.	.	.	.	16dd\	.	.	.	.	.	.	.	.	.	.	.
8A\	.	8a\	.	16dd\	.	.	.	.	.	.	.	.	.	.	.
.	.	.	.	16dd\	.	.	.	.	.	.	.	.	.	.	.
8A\J	.	8a\J	.	16dd\	.	8dd\	.	.	.	8r	.	8ffn\	.	8dd\	.
.	.	.	.	16dd\JJ	.	.	.	.	.	.	.	.	.	.	.
=47	=47	=47	=47	=47	=47	=47	=47	=47	=47	=47	=47	=47	=47	=47	=47
!	!	!	!	!LO:TX:a:t=13	!	!	!	!	!	!	!	!	!	!	!
8G#X\L	.	8bn\L	.	16dd\LL	.	8r	.	4d/	.	4dd\	.	4.dd\	.	4.ddd\	.
.	.	.	.	16dd\	.	.	.	.	.	.	.	.	.	.	.
8G#X\	.	8bn\	.	16dd\	.	8ddd\L	.	.	.	.	.	.	.	.	.
.	.	.	.	16dd\	.	.	.	.	.	.	.	.	.	.	.
!	!	!	!	!	!	!	!	!	!	!LO:TX:a:t=bis	!	!	!	!	!
8G#X\J	.	8bn\J	.	16dd\	.	8ddd\J	.	8r	.	8r	.	.	.	.	.
.	.	.	.	16dd\JJ	.	.	.	.	.	.	.	.	.	.	.
!LO:LB:g=original	!	!	!	!	!	!	!	!	!	!	!	!	!	!LO:LB:g=original	!
=48	=48	=48	=48	=48	=48	=48	=48	=48	=48	=48	=48	=48	=48	=48	=48
!	!	!	!	!LO:TX:a:t=14	!	!	!	!	!	!LO:TX:a:t=problem:repetycja tt.47	!	!	!	!	!
8G#X\L	.	8en\L	.	16dd\LL	.	4ddd\	.	4d/	.	4dd\yy	.	4dd\	.	4ddd\	.
.	.	.	.	16dd\	.	.	.	.	.	.	.	.	.	.	.
8G#X\	.	8en\	.	16dd\	.	.	.	.	.	.	.	.	.	.	.
.	.	.	.	16dd\	.	.	.	.	.	.	.	.	.	.	.
8G#X\J	.	8en\J	.	16dd\	.	8dd\	.	8r	.	8ryy	.	8ffn\	.	8dd\	.
.	.	.	.	16dd\JJ	.	.	.	.	.	.	.	.	.	.	.
!	!	!	!	!	!	!	!	!LO:LB:g=original	!	!	!	!	!	!	!
*Xtremolo	*	*	*	*Xtremolo	*	*	*	*	*	*	*	*	*	*	*
=49	=49	=49	=49	=49	=49	=49	=49	=49	=49	=49	=49	=49	=49	=49	=49
4A\	.	4e\	.	8cc#X\	.	8cc#'\L	.	8a/	.	8ee\	.	4ee\	.	4cc#X\	.
.	.	.	.	8r	.	(16aa\L	.	8r	.	8r	.	.	.	.	.
.	.	.	.	.	.	16bb\JJ)	.	.	.	.	.	.	.	.	.
8r	.	8r	.	8r	.	8aa\	.	8r	.	8r	.	8r	.	8r	.
=50	=50	=50	=50	=50	=50	=50	=50	=50	=50	=50	=50	=50	=50	=50	=50
!	!	!	!	!	!	!	!	!	!	!	!	!LO:TX:a:t=3	!	!LO:TX:a:t=3	!
!	!	!	!	!	!	!	!	!	!	!	!	!LO:N:vis=0	!	!LO:N:vis=0	!
4Bn\	.	4Bn/	.	8dd\	.	8dd\L	.	4a/	.	8aa\	.	2.r	.	2.r	.
.	.	.	.	8r	.	(16aa\	.	.	.	8r	.	.	.	.	.
.	.	.	.	.	.	16bb\)	.	.	.	.	.	.	.	.	.
8r	.	8r	.	8r	.	8aa`J\	.	8r	.	8r	.	.	.	.	.
!	!	!	!	!	!	!	!	!	!	!LO:LB:g=original	!	!	!	!	!
=51	=51	=51	=51	=51	=51	=51	=51	=51	=51	=51	=51	=51	=51	=51	=51
4c#\	.	4c#X/	.	8ee\	.	8ee\L	.	4a/	.	8aa\	.	.	.	.	.
.	.	.	.	8r	.	16aa\	.	.	.	8r	.	.	.	.	.
.	.	.	.	.	.	16bb\	.	.	.	.	.	.	.	.	.
8r	.	8r	.	8r	.	8aa\J	.	8r	.	8r	.	.	.	.	.
=52	=52	=52	=52	=52	=52	=52	=52	=52	=52	=52	=52	=52	=52	=52	=52
4d\	.	4d\	.	8ff#X\	.	8ff#`\L	.	4a/	.	8aa\	.	4.r	.	4.r	.
.	.	.	.	8r	.	16aa\	.	.	.	8r	.	.	.	.	.
.	.	.	.	.	.	16bb\	.	.	.	.	.	.	.	.	.
8r	.	8r	.	8r	.	8aa\J	.	8r	.	8r	.	.	.	.	.
!	!	!	!	!	!	!LO:LB:g=original	!	!	!	!	!	!	!	!	!
=53	=53	=53	=53	=53	=53	=53	=53	=53	=53	=53	=53	=53	=53	=53	=53
!	!	!	!LO:DY:t=p:	!	!	!	!	!	!LO:DY:t=pia:	!	!LO:DY:t=p:	!	!	!	!
4AA/	p	4A/	p	8r	.	8r	.	4a/	p	8aa\	p	4a/	p	4cc#\	p
!	!	!	!	!	!LO:DY:t=p:	!	!LO:DY:t=pp:	!	!	!	!	!	!	!	!
.	.	.	.	8a/L	p	(16aa\LL	pp	.	.	8r	.	.	.	.	.
.	.	.	.	.	.	16bb\J)	.	.	.	.	.	.	.	.	.
8r	.	8r	.	8a/J	.	8aa`\J	.	8r	.	8r	.	8r	.	8r	.
!	!	!	!	!	!	!	!	!	!	!	!	!LO:LB:g=original	!	!	!
=54	=54	=54	=54	=54	=54	=54	=54	=54	=54	=54	=54	=54	=54	=54	=54
4BB/	.	4B/	.	8r	.	8r	.	4a/	.	4aa\	.	4b\	.	4dd\	.
.	.	.	.	8a/L	.	(16aa\LL	.	.	.	.	.	.	.	.	.
.	.	.	.	.	.	16bb\J)	.	.	.	.	.	.	.	.	.
8r	.	8r	.	8a/J	.	8aa`\J	.	8r	.	8r	.	8r	.	8r	.
!	!	!	!	!LO:LB:g=original	!	!	!	!	!	!	!	!	!	!	!
=55	=55	=55	=55	=55	=55	=55	=55	=55	=55	=55	=55	=55	=55	=55	=55
4C#/	.	4c#/	.	8r	.	8r	.	4a/	.	4aa\	.	4cc#\	.	4ee\	.
.	.	.	.	8a/L	.	(16aa\LL	.	.	.	.	.	.	.	.	.
.	.	.	.	.	.	16bb\J)	.	.	.	.	.	.	.	.	.
8r	.	8r	.	8a/J	.	8aa`\J	.	8r	.	8r	.	8r	.	8r	.
=56	=56	=56	=56	=56	=56	=56	=56	=56	=56	=56	=56	=56	=56	=56	=56
4D\	.	4d/	.	8r	.	8r	.	4a/	.	4aa\	.	4dd\	.	4ff#\	.
.	.	.	.	8a/L	.	(16aa\LL	.	.	.	.	.	.	.	.	.
.	.	.	.	.	.	16bb\J)	.	.	.	.	.	.	.	.	.
8r	.	8r	.	8a/J	.	8aa`\J	.	8r	.	8r	.	8r	.	8r	.
!	!	!LO:LB:g=original	!	!	!	!	!	!	!	!	!	!	!	!	!
=57	=57	=57	=57	=57	=57	=57	=57	=57	=57	=57	=57	=57	=57	=57	=57
*	*	*	*	*tremolo	*	*	*	*	*	*	*	*	*	*	*
!	!	!	!	!	!	!	!LO:DY:t=fortiſ	!	!	!	!LO:N:vis=00	!	!	!	!
8D/L	f	8e\L	f	16b\LL	f	16gg#X\LL	ff	4.ee\	f	[4.ee\	ff	4dd\	f	4.gg#X\	f
.	.	.	.	16b\	.	16gg#\	.	.	.	.	.	.	.	.	.
8D/	.	8e\	.	16b\	.	16gg#\	.	.	.	.	.	.	.	.	.
.	.	.	.	16b\	.	16gg#\	.	.	.	.	.	.	.	.	.
8D/J	.	8e\J	.	16b\	.	16gg#\	.	.	.	.	.	8b\	.	.	.
.	.	.	.	16b\JJ	.	16gg#\JJ	.	.	.	.	.	.	.	.	.
=58	=58	=58	=58	=58	=58	=58	=58	=58	=58	=58	=58	=58	=58	=58	=58
*tremolo	*	*	*	*	*	*tremolo	*	*	*	*	*	*	*	*	*
8C#/L	.	8e\L	.	16cc#\LL	.	16aa\LL	.	4.ee\	.	4.ee\]	.	4.a/	.	4.aa\	.
.	.	.	.	16cc#\	.	16aa\	.	.	.	.	.	.	.	.	.
8C#/	.	8e\	.	16cc#\	.	16aa\	.	.	.	.	.	.	.	.	.
.	.	.	.	16cc#\	.	16aa\	.	.	.	.	.	.	.	.	.
8C#/J	.	8e\J	.	16cc#\	.	16aa\	.	.	.	.	.	.	.	.	.
.	.	.	.	16cc#\JJ	.	16aa\JJ	.	.	.	.	.	.	.	.	.
=59	=59	=59	=59	=59	=59	=59	=59	=59	=59	=59	=59	=59	=59	=59	=59
8G#X\L	.	8d\L	.	16ee\LL	.	16bb\LL	.	4.ee\	.	4.ee\	.	4.ee\	.	4.bb\	.
.	.	.	.	16ee\	.	16bb\	.	.	.	.	.	.	.	.	.
8G#X\	.	8d\	.	16ee\	.	16bb\	.	.	.	.	.	.	.	.	.
.	.	.	.	16ee\	.	16bb\	.	.	.	.	.	.	.	.	.
8G#X\J	.	8d\J	.	16ee\	.	16bb\	.	.	.	.	.	.	.	.	.
.	.	.	.	16ee\JJ	.	16bb\JJ	.	.	.	.	.	.	.	.	.
=60	=60	=60	=60	=60	=60	=60	=60	=60	=60	=60	=60	=60	=60	=60	=60
8A\L	.	8c#X\L	.	16ee\LL	.	16ccc#\LL	.	4.ee\	.	4.ee\	.	4.ee\	.	4.ccc#\	.
.	.	.	.	16ee\	.	16ccc#\	.	.	.	.	.	.	.	.	.
8A\	.	8c#X\	.	16ee\	.	16ccc#\	.	.	.	.	.	.	.	.	.
.	.	.	.	16ee\	.	16ccc#\	.	.	.	.	.	.	.	.	.
8A\J	.	8c#X\J	.	16ee\	.	16ccc#\	.	.	.	.	.	.	.	.	.
.	.	.	.	16ee\JJ	.	16ccc#\JJ	.	.	.	.	.	.	.	.	.
*	*	*Xtremolo	*	*Xtremolo	*	*Xtremolo	*	*	*	*	*	*	*	*	*
=61	=61	=61	=61	=61	=61	=61	=61	=61	=61	=61	=61	=61	=61	=61	=61
!	!	!	!	!	!	!	!	!LO:TX:a:t=6	!	!LO:TX:a:t=6	!	!	!	!	!
!	!	!	!	!	!	!	!	!LO:N:vis=00	!	!LO:N:vis=00	!	!	!	!	!
8d\L	.	8f#\L	.	8ff#\L	.	8ff#`\L	.	1.r	.	1.r	.	4.dd\	.	4.ff#\	.
8B\	.	(16g\L	.	(16ggn\L	.	(16gg\L	.	.	.	.	.	.	.	.	.
.	.	16a\J)	.	16ff#\	.	16ff#\	.	.	.	.	.	.	.	.	.
8G#X\J	.	8b`\J	.	16ee\	.	16ee\	.	.	.	.	.	.	.	.	.
.	.	.	.	16dd\JJ)	.	16dd\JJ)	.	.	.	.	.	.	.	.	.
!	!	!	!	!	!	!LO:LB:g=original	!	!	!	!	!	!	!	!	!
=62	=62	=62	=62	=62	=62	=62	=62	=62	=62	=62	=62	=62	=62	=62	=62
8c#\L	.	8e\L	.	8ee\L	.	8ee`\L	.	.	.	.	.	8dd\	.	4.ee\	.
8A\	.	(16f#\L	.	16ff#\L	.	(16ff#\L	.	.	.	.	.	4cc#X\	.	.	.
.	.	16g#Xi\J)	.	16ee\	.	16ee\	.	.	.	.	.	.	.	.	.
8F#\J	.	8a`\J	.	16dd\	.	16dd\	.	.	.	.	.	.	.	.	.
.	.	.	.	16cc#\JJ	.	16cc#\JJ)	.	.	.	.	.	.	.	.	.
!LO:LB:g=original	!	!	!	!	!	!	!	!	!	!	!	!	!	!	!
=63	=63	=63	=63	=63	=63	=63	=63	=63	=63	=63	=63	=63	=63	=63	=63
4B\	.	8d\L	.	8dd`\L	.	8dd`\L	.	.	.	.	.	4.b\	.	4.dd\	.
.	.	(16e\L	.	(16ee\L	.	(16ee\L	.	.	.	.	.	.	.	.	.
.	.	16f#\J)	.	16dd\	.	16dd\	.	.	.	.	.	.	.	.	.
8G#X\	.	8g#X`\J	.	16cc#\	.	16cc#\	.	.	.	.	.	.	.	.	.
.	.	.	.	16b\JJ)	.	16b\JJ)	.	.	.	.	.	.	.	.	.
=64	=64	=64	=64	=64	=64	=64	=64	=64	=64	=64	=64	=64	=64	=64	=64
4A\	.	4a\	.	8cc#`\L	.	8cc#`\L	.	.	.	.	.	4.a/	.	4cc#\	.
.	.	.	.	(16dd\L	.	(16dd\L	.	.	.	.	.	.	.	.	.
.	.	.	.	16cc#\	.	16cc#\	.	.	.	.	.	.	.	.	.
8C#/	.	8c#/	.	16b\	.	16b\	.	.	.	.	.	.	.	8r	.
.	.	.	.	16a\JJ)	.	16a\JJ)	.	.	.	.	.	.	.	.	.
!	!	!	!	!LO:LB:g=original	!	!	!	!	!	!	!	!	!	!LO:LB:g=original	!
=65	=65	=65	=65	=65	=65	=65	=65	=65	=65	=65	=65	=65	=65	=65	=65
!	!	!	!	!	!	!	!	!	!	!	!	!LO:TX:a:t=2	!	!LO:TX:a:t=2	!
!	!	!	!	!	!	!	!	!LO:N:vis=0	!	!LO:N:vis=0	!	!LO:N:vis=0	!	!LO:N:vis=0	!
4.D\	.	8d\L	.	16b/LL	.	(16b/LL	.	2.r	.	2.r	.	2.r	.	2.r	.
.	.	.	.	16a#X/	.	16a#X/	.	.	.	.	.	.	.	.	.
.	.	8f#\	.	16b/	.	16b/	.	.	.	.	.	.	.	.	.
.	.	.	.	16a#/	.	16a#/	.	.	.	.	.	.	.	.	.
.	.	8f#\J	.	16b/	.	16b/	.	.	.	.	.	.	.	.	.
.	.	.	.	16a#/JJ	.	16a#/JJ)	.	.	.	.	.	.	.	.	.
=66	=66	=66	=66	=66	=66	=66	=66	=66	=66	=66	=66	=66	=66	=66	=66
4D\	.	4.f#\	.	16b\LL	.	16b\LL	.	.	.	.	.	.	.	.	.
.	.	.	.	16dd\	.	16dd\	.	.	.	.	.	.	.	.	.
.	.	.	.	16ff#\	.	16ff#\	.	.	.	.	.	.	.	.	.
.	.	.	.	16dd\	.	16dd\	.	.	.	.	.	.	.	.	.
8D#X\	.	.	.	16b\	.	16b\	.	.	.	.	.	.	.	.	.
.	.	.	.	16an\JJ	.	16an\JJ	.	.	.	.	.	.	.	.	.
=67	=67	=67	=67	=67	=67	=67	=67	=67	=67	=67	=67	=67	=67	=67	=67
!	!	!LO:TX:a:t=problem: mixed beam	!	!	!	!	!	!	!	!	!	!	!	!	!
8E\L	.	8e\L	.	8g#X/L	.	8g#X/L	.	8ee\L	.	8ee\L	.	8g#X/L	.	8ee\L	.
8BB\	.	8B/	.	8B/ 8g#	.	8e/ 8ee	.	8ee\	.	8ee\	.	8g#/	.	8ee\	.
8GG#X\J	.	8B/J	.	8B/J 8g#	.	8e/J 8ee	.	8ee\J	.	8ee\J	.	8g#/J	.	8ee\J	.
!	!	!LO:LB:g=original	!	!	!	!	!	!	!	!	!	!	!	!	!
=68	=68	=68	=68	=68	=68	=68	=68	=68	=68	=68	=68	=68	=68	=68	=68
!	!	!	!	!LO:TX:a:t=sic:s:4g#	!	!	!	!	!	!	!	!LO:TX:a:t=sic:s=4g#	!	!	!
4EE/	.	4B/	.	4B/ 4g	.	4e/ 4ee	.	4ee\	.	4ee\	.	4g/	.	4ee\	.
8r	.	8r	.	8r	.	8r	.	8r	.	8r	.	8r	.	8r	.
!	!	!	!	!	!	!	!	!LO:LB:g=original	!	!LO:LB:g=original	!	!LO:LB:g=original	!	!	!
=69	=69	=69	=69	=69	=69	=69	=69	=69	=69	=69	=69	=69	=69	=69	=69
!	!	!	!	!	!	!	!	!LO:TX:a:t=22	!	!LO:TX:a:t=22	!	!LO:TX:a:t=3	!	!LO:TX:a:t=3	!
!	!	!	!LO:DY:t=p:	!	!	!	!	!LO:N:vis=00	!	!LO:N:vis=00	!	!LO:N:vis=0	!	!LO:N:vis=0	!
4AA/	p	4A/	p	4e/	p	8r	.	1.r	.	1.r	.	2.r	.	2.r	.
.	.	.	.	.	.	8ee\L	p	.	.	.	.	.	.	.	.
8r	.	8r	.	8r	.	8ee\J	.	.	.	.	.	.	.	.	.
!	!	!	!	!	!	!LO:LB:g=original	!	!	!	!	!	!	!	!	!
=70	=70	=70	=70	=70	=70	=70	=70	=70	=70	=70	=70	=70	=70	=70	=70
!	!	!	!	!LO:TX:a:t=1	!	!	!	!	!	!	!	!	!	!	!
4A\	.	4a\	.	4.r	.	8ee'\L	.	.	.	.	.	.	.	.	.
.	.	.	.	.	.	(16ff#\	.	.	.	.	.	.	.	.	.
.	.	.	.	.	.	16ee\	.	.	.	.	.	.	.	.	.
8r	.	8r	.	.	.	16dd\	.	.	.	.	.	.	.	.	.
.	.	.	.	.	.	16cc#\J)	.	.	.	.	.	.	.	.	.
=71	=71	=71	=71	=71	=71	=71	=71	=71	=71	=71	=71	=71	=71	=71	=71
.	.	.	.	.	.	8qqcc#/	.	.	.	.	.	.	.	.	.
4.B\	.	4b\	.	4.f#/	.	8dd\L	.	.	.	.	.	4.r	.	4.r	.
.	.	.	.	.	.	8dd\	.	.	.	.	.	.	.	.	.
.	.	8r	.	.	.	8dd\J	.	.	.	.	.	.	.	.	.
=72	=72	=72	=72	=72	=72	=72	=72	=72	=72	=72	=72	=72	=72	=72	=72
8r	.	8r	.	8r	.	4dd\	.	.	.	.	.	8r	p	8r	p
8BB/L	.	8B/L	.	8d'/L	.	.	.	.	.	.	.	8b'\L	.	8dd`\L	.
8AA/J	.	8A/J	.	8d'/J	.	8r	.	.	.	.	.	8b'\J	.	8dd`\J	.
=73	=73	=73	=73	=73	=73	=73	=73	=73	=73	=73	=73	=73	=73	=73	=73
!	!	!	!	!	!	!	!	!LO:N:vis=00	!	!LO:N:vis=00	!	!	!	!	!
4.GG#X/	.	4.G#X/	.	[4.e/	.	8r	.	1.r	.	1.r	.	4b\	.	4dd\	.
.	.	.	.	.	.	8dd`\L	.	.	.	.	.	.	.	.	.
.	.	.	.	.	.	8dd`\J	.	.	.	.	.	8r	.	8r	.
=74	=74	=74	=74	=74	=74	=74	=74	=74	=74	=74	=74	=74	=74	=74	=74
!LO:TX:a:t=sic:s=4.G#	!	!	!	!	!	!	!	!	!	!	!	!LO:TX:a:t=2	!	!LO:TX:a:t=2	!
!	!	!	!	!	!	!	!	!	!	!	!	!LO:N:vis=0	!	!LO:N:vis=0	!
4.G\	.	4.g#X\	.	4.e/]	.	8dd\L	.	.	.	.	.	2.r	.	2.r	.
.	.	.	.	.	.	(16ee\L	.	.	.	.	.	.	.	.	.
.	.	.	.	.	.	16dd\	.	.	.	.	.	.	.	.	.
.	.	.	.	.	.	16cc#\	.	.	.	.	.	.	.	.	.
.	.	.	.	.	.	16b\JJ)	.	.	.	.	.	.	.	.	.
!	!	!	!	!LO:LB:g=original	!	!	!	!	!	!	!	!	!	!	!
=75	=75	=75	=75	=75	=75	=75	=75	=75	=75	=75	=75	=75	=75	=75	=75
.	.	.	.	.	.	8qqb#X/	.	.	.	.	.	.	.	.	.
4.A\	.	4f#\ 4a	.	8r	.	8cc#\L	.	.	.	.	.	.	.	.	.
.	.	.	.	8e/L	.	8cc#\	.	.	.	.	.	.	.	.	.
.	.	8r	.	8e/J	.	8cc#\J	.	.	.	.	.	.	.	.	.
=76	=76	=76	=76	=76	=76	=76	=76	=76	=76	=76	=76	=76	=76	=76	=76
4AA/	.	4A/	.	4e/	.	4cc#\	.	.	.	.	.	8r	.	8r	.
.	.	.	.	.	.	.	.	.	.	.	.	8a'/L	.	8cc#`\L	.
8r	.	8r	.	8r	.	8r	.	.	.	.	.	8a'/J	.	8cc#`\J	.
!LO:LB:g=original	!	!	!	!	!	!	!	!	!	!	!	!	!	!	!
=77	=77	=77	=77	=77	=77	=77	=77	=77	=77	=77	=77	=77	=77	=77	=77
!	!	!	!	!	!	!	!	!	!	!	!	!LO:TX:a:t=9	!	!LO:TX:a:t=9	!
!	!	!	!	!	!	!	!	!LO:N:vis=00	!	!LO:N:vis=00	!	!LO:N:vis=00	!	!LO:N:vis=00	!
(4.D\	.	(4.d\	.	(<4.f#/	.	8r	.	1.r	.	1.r	.	1.r	.	1.r	.
.	.	.	.	.	.	(8a#X/L	.	.	.	.	.	.	.	.	.
.	.	.	.	.	.	8b/J)	.	.	.	.	.	.	.	.	.
=78	=78	=78	=78	=78	=78	=78	=78	=78	=78	=78	=78	=78	=78	=78	=78
4.C#X\	.	4.c#X\)	.	4.e/	.	8b/L	.	.	.	.	.	.	.	.	.
.	.	.	.	.	.	8g#X/	.	.	.	.	.	.	.	.	.
.	.	.	.	.	.	8an/J	.	.	.	.	.	.	.	.	.
!	!	!	!	!	!	!LO:LB:g=original	!	!	!	!	!	!	!	!	!
=79	=79	=79	=79	=79	=79	=79	=79	=79	=79	=79	=79	=79	=79	=79	=79
4.A\	.	(4.a\	.	4.cc#\)	.	8r	.	.	.	.	.	.	.	.	.
.	.	.	.	.	.	(8ee#X\L	.	.	.	.	.	.	.	.	.
.	.	.	.	.	.	8ff#\J)	.	.	.	.	.	.	.	.	.
=80	=80	=80	=80	=80	=80	=80	=80	=80	=80	=80	=80	=80	=80	=80	=80
4.G#X\)	.	4.g#X\)	.	4.b\	.	8ff#`\L	.	.	.	.	.	.	.	.	.
.	.	.	.	.	.	8dd#X\	.	.	.	.	.	.	.	.	.
.	.	.	.	.	.	8ee\J	.	.	.	.	.	.	.	.	.
=81	=81	=81	=81	=81	=81	=81	=81	=81	=81	=81	=81	=81	=81	=81	=81
!	!	!	!	!	!	!	!	!LO:N:vis=00	!	!LO:N:vis=00	!	!LO:N:vis=00	!	!LO:N:vis=00	!
4.F#\	.	4.f#X\	.	4.a/	.	8r	.	1.r	.	1.r	.	1.r	.	1.r	.
.	.	.	.	.	.	8dd#X'\L	.	.	.	.	.	.	.	.	.
.	.	.	.	.	.	8dd#'\J	.	.	.	.	.	.	.	.	.
!	!	!LO:LB:g=original	!	!	!	!	!	!	!	!	!	!	!	!	!
=82	=82	=82	=82	=82	=82	=82	=82	=82	=82	=82	=82	=82	=82	=82	=82
4.F#\	.	4.f#\	.	4.a/	.	4aa\	.	.	.	.	.	.	.	.	.
.	.	.	.	.	.	8dd#X\	.	.	.	.	.	.	.	.	.
=83	=83	=83	=83	=83	=83	=83	=83	=83	=83	=83	=83	=83	=83	=83	=83
4.G#X\	.	[4.g#X\	.	4.b\	.	8r	.	.	.	.	.	.	.	.	.
.	.	.	.	.	.	8ddn\L	.	.	.	.	.	.	.	.	.
.	.	.	.	.	.	8dd\J	.	.	.	.	.	.	.	.	.
=84	=84	=84	=84	=84	=84	=84	=84	=84	=84	=84	=84	=84	=84	=84	=84
!LO:TX:a:t=sic:s=4.G#	!	!	!	!	!	!	!	!	!	!	!	!	!	!	!
4.G\	.	4.g#\]	.	4.b\	.	4bb\	.	.	.	.	.	.	.	.	.
.	.	.	.	.	.	8dd\	.	.	.	.	.	.	.	.	.
=85	=85	=85	=85	=85	=85	=85	=85	=85	=85	=85	=85	=85	=85	=85	=85
!	!	!	!	!	!	!	!	!LO:N:vis=00	!	!LO:N:vis=00	!	!	!	!	!
4A\	.	4a\	.	8.a/L	.	8.cc#\L	.	1.r	.	1.r	.	4.r	.	4.r	.
.	.	.	.	16b/K	.	16dd\K	.	.	.	.	.	.	.	.	.
8r	.	8r	.	8a/J	.	8cc#\J	.	.	.	.	.	.	.	.	.
=86	=86	=86	=86	=86	=86	=86	=86	=86	=86	=86	=86	=86	=86	=86	=86
!	!	!	!	!	!	!	!	!	!	!	!	!	!	!	!LO:DY:t=p.
4A\	.	8r	.	8a/L	.	8cc#\L	.	.	.	.	.	4.a/	<	4.cc#\	p
.	.	(8a\L	.	8a/	.	8cc#\	.	.	.	.	.	.	.	.	.
8G#X\	.	8g#X\J)	.	8a/J	.	8cc#\J	.	.	.	.	.	.	.	.	.
!	!	!	!	!LO:LB:g=original	!	!	!	!	!	!	!	!	!	!	!
=87	=87	=87	=87	=87	=87	=87	=87	=87	=87	=87	=87	=87	=87	=87	=87
!	!	!	!	!	!	!	!	!	!	!	!	!	!	!LO:TX:a:t=1	!
4F#\	.	4f#\	.	8.a/L	.	8.cc#\L	.	.	.	.	.	4.r	.	4.r	.
.	.	.	.	16b/K	.	16dd\K	.	.	.	.	.	.	.	.	.
8r	.	8r	.	8a/J	.	8cc#\J	.	.	.	.	.	.	.	.	.
!	!	!	!	!	!	!LO:LB:g=original	!	!	!	!	!	!	!	!	!
=88	=88	=88	=88	=88	=88	=88	=88	=88	=88	=88	=88	=88	=88	=88	=88
4F#\	.	4f#\	.	8a/L	.	8cc#\L	.	.	.	.	.	8a/L	.	8cc#`\L	.
.	.	.	.	8a/	.	8cc#\	.	.	.	.	.	8a/	.	8cc#`\	.
8E\	.	8e\	.	8a/J	.	8cc#\J	.	.	.	.	.	8a/J	.	8cc#`\J	.
=89	=89	=89	=89	=89	=89	=89	=89	=89	=89	=89	=89	=89	=89	=89	=89
!	!	!	!	!LO:TX:a:t=problrm:mixed beam	!	!	!	!LO:N:vis=0	!	!LO:N:vis=0	!	!	!	!	!
8D\	.	4d\	.	8f#/L	.	8b\L	.	2.r	.	2.r	.	8f#X/L	.	8b\L	.
!	!	!	!	!	!	!	!	!	!	!	!	!LO:TX:a:t=problem: mixed beam	!	!	!
8r	.	.	.	8dd\	.	8ff#\	.	.	.	.	.	8dd\	.	8ff#\	.
8r	.	8r	.	8cc#\J	.	8ee\J	.	.	.	.	.	8cc#\J	.	8ee\J	.
=90	=90	=90	=90	=90	=90	=90	=90	=90	=90	=90	=90	=90	=90	=90	=90
.	.	.	.	8qqcc#/	.	8qqee/	.	.	.	.	.	8qqcc#/	.	8qqee/	.
!LO:TX:a:t=problem: mixed beam	!	!LO:TX:a:t=problem: mixed beam	!	!	!	!	!	!	!	!	!	!	!	!	!
8D\L	.	8d\L	.	8b\L	.	8dd\L	.	.	.	.	.	8b\L	.	8dd\L	.
8E\	.	8e\	.	8a\	.	8cc#\	.	.	.	.	.	8a\	.	8cc#\	.
8EE/J	.	8E/J	.	8g#X\J	.	8b\J	.	.	.	.	.	8g#X\J	.	8b\J	.
!	!	!	!	!	!	!	!	!	!	!	!	!	!	!LO:LB:g=original	!
=91	=91	=91	=91	=91	=91	=91	=91	=91	=91	=91	=91	=91	=91	=91	=91
4AA/	<	4A/	.	8r	.	8r	<	4.A/	<	[4.a/	<	4.a/	.	[4.aa\	<
.	.	.	.	8a/L	.	8cc#\L	.	.	.	.	.	.	.	.	.
8r	.	8r	<	8a/J	.	8cc#\J	.	.	.	.	.	.	.	.	.
!LO:LB:g=original	!	!	!	!	!	!	!	!	!	!	!	!LO:N:vis=00	!	!	!
=92	=92	=92	=92	=92	=92	=92	=92	=92	=92	=92	=92	=92	=92	=92	=92
8r	.	8r	.	8.a/L	.	8.cc#\L	.	4.A/	.	4.a/]	.	4.cc#X\	.	4.aa\_	.
8A\L	.	8a\L	.	.	.	.	.	.	.	.	.	.	.	.	.
.	.	.	.	16b/K	.	16dd\K	.	.	.	.	.	.	.	.	.
8G#X\J	.	8g#X\J	.	8a/J	.	8cc#\J	.	.	.	.	.	.	.	.	.
=93	=93	=93	=93	=93	=93	=93	=93	=93	=93	=93	=93	=93	=93	=93	=93
4F#X\	.	4f#X\	.	8r	.	8r	.	4.A/	.	4.a/	.	[<4.cc#\	.	4.aa\_	.
.	.	.	.	8a/L	.	8cc#\L	.	.	.	.	.	.	.	.	.
8r	.	8r	.	8a/J	.	8cc#\J	.	.	.	.	.	.	.	.	.
=94	=94	=94	=94	=94	=94	=94	=94	=94	=94	=94	=94	=94	=94	=94	=94
8r	.	8r	.	8.a/L	.	8.cc#\L	.	4.A/	.	4.a/	.	4.cc#\]	.	(4.aa\]	.
8F#\L	.	8f#\L	.	.	.	.	.	.	.	.	.	.	.	.	.
.	.	.	.	16b/K	.	16dd\K	.	.	.	.	.	.	.	.	.
8E\J	.	8e\J	.	8a/J	.	8cc#\J	.	.	.	.	.	.	.	.	.
!	!	!LO:LB:g=original	!	!	!	!	!	!	!	!	!	!	!	!	!
=95	=95	=95	=95	=95	=95	=95	=95	=95	=95	=95	=95	=95	=95	=95	=95
!	!	!	!	!LO:TX:a:t=problem:mixed beam	!	!	!LO:DY:t=rinfor	!	!	!	!	!	!	!	!
4D/	.	8d\L	.	16f#/LL	.	16b\LL	fr	8r	.	8r	.	8b\L	.	8b\L)	.
.	.	.	.	16f#/	.	16b\	.	.	.	.	.	.	.	.	.
.	.	8f#\	.	16dd\	.	16ff#\	.	8dd\L	.	8ff#\L	.	8dd\	.	8ff#\	.
.	.	.	.	16dd\	.	16ff#\	.	.	.	.	.	.	.	.	.
8C#X/	.	8e\J	.	16cc#\	.	16ee\	.	8a\J	.	8ee\J	.	8cc#\J	.	8ee\J	.
.	.	.	.	16cc#\JJ	.	16ee\JJ	.	.	.	.	.	.	.	.	.
!	!	!	!	!LO:LB:g=original	!	!	!	!	!	!	!	!	!	!	!
=96	=96	=96	=96	=96	=96	=96	=96	=96	=96	=96	=96	=96	=96	=96	=96
.	.	8qqe/	.	.	.	.	.	.	.	.	.	.	.	8qqee/	.
!LO:TX:a:t=problem:mixed beam	!	!	!	!	!	!	!	!	!	!	!	!	!	!	!
8D\L	.	8d\L	.	16f#/LL	.	16dd\LL	.	8r	.	8r	.	8b\L	.	8dd\L	.
.	.	.	.	16f#/	.	16dd\	.	.	.	.	.	.	.	.	.
8E\	.	8e\	.	16e/	.	16cc#\	.	8ee\L	.	8ee\L	.	8a\	.	8cc#\	.
.	.	.	.	16e/	.	16cc#\	.	.	.	.	.	.	.	.	.
8EE/J	.	8e\J	.	16d/	.	16b\	.	8ee\J	.	8ee\J	.	8g#X\J	.	8b\J	.
.	.	.	.	16d/JJ	.	16b\JJ	.	.	.	.	.	.	.	.	.
!	!	!	!	!	!	!LO:LB:g=original	!	!	!	!	!	!	!	!	!
=97	=97	=97	=97	=97	=97	=97	=97	=97	=97	=97	=97	=97	=97	=97	=97
!	!LO:DY:t=fortiſ	!	!LO:DY:t=fortiſ	!	!	!	!LO:DY:t=fortiſ	!	!	!	!LO:DY:t=fortiſ	!	!	!	!
8.AA/L	ff	8.a\L	ff	8.c#/L	f	8.a/L	ff	4a/	.	4a/	ff	4a/	.	4a/	.
16E/L	.	16e\L	.	16e/L	.	16e/L	.	.	.	.	.	.	.	.	.
16F#/	.	16f#\	.	16f#/	.	16f#/	.	8r	.	8r	.	8r	.	8r	.
16G#X/JJ	.	16g#X\JJ	.	16g#X/JJ	.	16g#X/JJ	.	.	.	.	.	.	.	.	.
=98	=98	=98	=98	=98	=98	=98	=98	=98	=98	=98	=98	=98	=98	=98	=98
16A\LL	.	16a\LL	.	16a/LL	.	16a/LL	.	4A/	.	4a/	.	8r	.	8r	.
!	!	!	!	!	!	!LO:TX:a:t=sic:s=16g#	!	!	!	!	!	!	!	!	!
16G#X\	.	16g#X\	.	16g#X/	.	16g/	.	.	.	.	.	.	.	.	.
16A\	.	16a\	.	16a/	.	16a/	.	.	.	.	.	8cc#\L	.	8aa\L	f
!	!	!	!	!	!	!LO:TX:a:t=sic:s=16g#	!	!	!	!	!	!	!	!	!
16G#\	.	16g#\	.	16g#/	.	16g/	.	.	.	.	.	.	.	.	.
16F#\	.	16f#\	.	16f#/	.	16f#/	.	8r	.	8r	.	8cc#\J	.	8aa\J	.
16E#X\JJ	.	16e#X\JJ	.	16e#X/JJ	.	16e#X/JJ	.	.	.	.	.	.	.	.	.
=99	=99	=99	=99	=99	=99	=99	=99	=99	=99	=99	=99	=99	=99	=99	=99
!	!	!	!	!LO:N:vis=8	!	!	!	!	!	!	!	!	!	!	!
8.F#\L	.	8.f#\L	.	8.f#/L	.	8.f#/L	.	4A/	.	4a/	.	4cc#\	.	4aa\	.
16C#\L	.	16c#\L	.	16c#/L	.	16c#/L	.	.	.	.	.	.	.	.	.
!	!	!	!	!LO:TX:a:t=sic:s=16d#	!	!LO:TX:a:t=sic:s=16d#	!	!	!	!	!	!	!	!	!
16D#X\	.	16d#X\	.	16d/	.	16d/	.	8r	.	8r	.	8r	.	8r	.
16E#X\JJ	.	16e#X\JJ	.	16e#X/JJ	.	16e#X/JJ	.	.	.	.	.	.	.	.	.
=100	=100	=100	=100	=100	=100	=100	=100	=100	=100	=100	=100	=100	=100	=100	=100
16F#\LL	.	16f#\LL	.	16f#/LL	.	16f#/LL	.	4A/	.	4a/	.	8r	.	8r	.
16E#X\	.	16e#X\	.	16e#X/	.	16e#X/	.	.	.	.	.	.	.	.	.
16F#\	.	16f#\	.	16f#/	.	16f#/	.	.	.	.	.	8cc#\L	.	8aa\L	.
!	!	!	!	!	!	!LO:TX:a:t=sic:s=16en	!	!	!	!	!	!	!	!	!
16En\	.	16en\	.	16en/	.	16e#/	.	.	.	.	.	.	.	.	.
16D\	.	16d\	.	16d/	.	16d/	.	8r	.	8r	.	8cc#\J	.	8aa\J	.
16C#\JJ	.	16c#\JJ	.	16c#/JJ	.	16c#/JJ	.	.	.	.	.	.	.	.	.
!LO:LB:g=original	!	!	!	!	!	!	!	!	!	!LO:LB:g=original	!	!	!	!	!
=101	=101	=101	=101	=101	=101	=101	=101	=101	=101	=101	=101	=101	=101	=101	=101
*	*	*tremolo	*	*tremolo	*	*tremolo	*	*	*	*	*	*	*	*	*
!	!	!	!	!	!	!	!	!LO:TX:a:t=1	!	!LO:TX:a:t=1	!	!LO:TX:a:t=t	!	!	!
4.Dn\	.	8d\L	.	16b\LL	.	16b\ 16aaLL	.	4.r	.	4.r	.	4.cc#\	.	4.aa\	.
.	.	.	.	16b\	.	16b\ 16aa	.	.	.	.	.	.	.	.	.
.	.	8d\	.	16b\	.	16b\ 16aa	.	.	.	.	.	.	.	.	.
.	.	.	.	16b\	.	16b\ 16aa	.	.	.	.	.	.	.	.	.
.	.	8d\J	.	16b\	.	16b\ 16aa	.	.	.	.	.	.	.	.	.
.	.	.	.	16b\JJ	.	16b\ 16aaJJ	.	.	.	.	.	.	.	.	.
!	!	!	!	!	!	!	!	!LO:LB:g=original	!	!	!	!	!	!	!
=102	=102	=102	=102	=102	=102	=102	=102	=102	=102	=102	=102	=102	=102	=102	=102
4.En\	.	8e\L	.	16b\LL	.	16b\ 16gg#XLL	.	4.ee\	.	4.ee\	.	4.b\	.	4.gg#X\	.
*	*	*	*	*	*	*	*	*	*	*	*	*	*	*	*
.	.	.	.	16b\	.	16b\ 16gg#X	.	.	.	.	.	.	.	.	.
.	.	8e\	.	16b\	.	16b\ 16gg#X	.	.	.	.	.	.	.	.	.
.	.	.	.	16b\	.	16b\ 16gg#X	.	.	.	.	.	.	.	.	.
.	.	8e\J	.	16b\	.	16b\ 16gg#X	.	.	.	.	.	.	.	.	.
.	.	.	.	16b\JJ	.	16b\ 16gg#XJJ	.	.	.	.	.	.	.	.	.
!	!	!	!	!	!	!	!	!	!	!	!	!	!	!LO:LB:g=original	!
*Xtremolo	*	*Xtremolo	*	*Xtremolo	*	*Xtremolo	*	*	*	*	*	*	*	*	*
!	!	!LO:PB:g=original	!	!LO:LB:g=original	!	!	!	!	!	!	!	!	!	!	!
=103	=103	=103	=103	=103	=103	=103	=103	=103	=103	=103	=103	=103	=103	=103	=103
8A\L	.	8a\L	.	8A/L 8e 8cc#	.	8cc#\L 8aa	.	8a/L	.	8ee\L	.	8cc#\L	.	8aa\L	.
8E\	.	8e\	.	8A/ 8e 8cc#	.	8cc#\ 8aa	.	8a/	.	8ee\	.	8cc#\	.	8aa\	.
8C#\J	.	8c#\J	.	8A/J 8e 8cc#	.	8cc#\J 8aa	.	8a/J	.	8ee\J	.	8cc#\J	.	8aa\J	.
!	!	!	!	!	!	!	!	!	!	!	!	!LO:LB:g=original	!	!	!
=104	=104	=104	=104	=104	=104	=104	=104	=104	=104	=104	=104	=104	=104	=104	=104
4AA/	.	4A/	.	4A/ 4e 4cc#	.	4cc#\ 4aa	.	4a/	.	4ee\	.	4cc#\	.	4aa\	.
8r	.	8r	.	8r	.	8r	.	8r	.	8r	.	8r	.	8r	.
!	!	!	!	!	!	!LO:LB:g=original	!	!	!	!	!	!	!	!	!
=105:|!|:	=105:|!|:	=105:|!|:	=105:|!|:	=105:|!|:	=105:|!|:	=105:|!|:	=105:|!|:	=105:|!|:	=105:|!|:	=105:|!|:	=105:|!|:	=105:|!|:	=105:|!|:	=105:|!|:	=105:|!|:
*>B	*	*>B	*	*>B	*	*>B	*	*>B	*	*>B	*	*>B	*	*>B	*
!	!	!	!	!	!	!	!	!LO:TX:a:t=22	!	!LO:TX:a:t=22	!	!LO:TX:a:t=22	!	!LO:TX:a:t=22	!
!	!	!	!	!	!LO:DY:t=p:	!	!	!LO:N:vis=00	!	!LO:N:vis=00	!	!LO:N:vis=00	!	!LO:N:vis=00	!
[4.AA/	p	8c#X\L	pp	4.e/	p	8cc#\L	p	1.r	.	1.r	.	1.r	.	1.r	.
.	.	8e\	.	.	.	8ee\	.	.	.	.	.	.	.	.	.
.	.	8dn\J	.	.	.	8dd\J	.	.	.	.	.	.	.	.	.
=106	=106	=106	=106	=106	=106	=106	=106	=106	=106	=106	=106	=106	=106	=106	=106
.	.	.	.	.	.	8qqdd/	.	.	.	.	.	.	.	.	.
4.AA/]	.	(8c#\L	.	4.e/	.	8cc#\L	.	.	.	.	.	.	.	.	.
.	.	8B\	.	.	.	8b\	.	.	.	.	.	.	.	.	.
.	.	8A\J)	.	.	.	8a\J	.	.	.	.	.	.	.	.	.
=107	=107	=107	=107	=107	=107	=107	=107	=107	=107	=107	=107	=107	=107	=107	=107
.	.	.	.	.	.	8qqa/	.	.	.	.	.	.	.	.	.
4BB/	.	8G#X'/L	.	4e/	.	8g#X/L	.	.	.	.	.	.	.	.	.
.	.	8G#'/	.	.	.	8g#/	.	.	.	.	.	.	.	.	.
8r	.	8G#'/J	.	8d/	.	8g#/J	.	.	.	.	.	.	.	.	.
=108	=108	=108	=108	=108	=108	=108	=108	=108	=108	=108	=108	=108	=108	=108	=108
!	!	!LO:TX:a:t=sic:s=4G#	!	!	!	!LO:TX:a:t=sic:s=4g#	!	!	!	!	!	!	!	!	!
8BB`/L	.	4G/	.	8d`/L	.	4g/	.	.	.	.	.	.	.	.	.
(8BB/	.	.	.	(8d/	.	.	.	.	.	.	.	.	.	.	.
8AA/J)	.	8r	.	8c#/J)	.	8r	.	.	.	.	.	.	.	.	.
=109	=109	=109	=109	=109	=109	=109	=109	=109	=109	=109	=109	=109	=109	=109	=109
!	!	!	!	!	!	!	!	!LO:N:vis=00	!	!LO:N:vis=00	!	!LO:N:vis=00	!	!LO:N:vis=00	!
4.GG#X/	.	8d\L	.	4.B/	.	8dd\L	.	1.r	.	1.r	.	1.r	.	1.r	.
.	.	8f#\	.	.	.	8ff#\	.	.	.	.	.	.	.	.	.
.	.	8e\J	.	.	.	8ee\J	.	.	.	.	.	.	.	.	.
=110	=110	=110	=110	=110	=110	=110	=110	=110	=110	=110	=110	=110	=110	=110	=110
.	.	.	.	.	.	8qqee/	.	.	.	.	.	.	.	.	.
4.G#X\	.	8d\L	.	4.e/	.	8dd\L	.	.	.	.	.	.	.	.	.
.	.	8c#\	.	.	.	8cc#\	.	.	.	.	.	.	.	.	.
.	.	8B\J	.	.	.	8b\J	.	.	.	.	.	.	.	.	.
=111	=111	=111	=111	=111	=111	=111	=111	=111	=111	=111	=111	=111	=111	=111	=111
4.A\	.	8A/L	.	8e/L	.	8a/L	.	.	.	.	.	.	.	.	.
.	.	8A/	.	8e/	.	8a/	.	.	.	.	.	.	.	.	.
.	.	8A/J	.	8e/J	.	8a/J	.	.	.	.	.	.	.	.	.
=112	=112	=112	=112	=112	=112	=112	=112	=112	=112	=112	=112	=112	=112	=112	=112
8A\L	.	4A/	.	4e/	.	4a/	.	.	.	.	.	.	.	.	.
8E\	.	.	.	.	.	.	.	.	.	.	.	.	.	.	.
8C#\J	.	8r	.	8r	.	8r	.	.	.	.	.	.	.	.	.
=113	=113	=113	=113	=113	=113	=113	=113	=113	=113	=113	=113	=113	=113	=113	=113
!	!	!LO:TX:a:t=2	!	!LO:TX:a:t=1	!	!	!	!LO:N:vis=00	!	!LO:N:vis=00	!	!LO:N:vis=00	!	!LO:N:vis=00	!
!	!	!LO:N:vis=0	!	!	!	!	!	!	!	!	!	!	!	!	!
4AA/	.	2.r	.	4.r	.	8r	.	1.r	.	1.r	.	1.r	.	1.r	.
.	.	.	.	.	.	8ee\L	.	.	.	.	.	.	.	.	.
8r	.	.	.	.	.	8dd\J	.	.	.	.	.	.	.	.	.
=114	=114	=114	=114	=114	=114	=114	=114	=114	=114	=114	=114	=114	=114	=114	=114
!LO:TX:a:t=1	!	!	!	!	!	!	!	!	!	!	!	!	!	!	!
4.r	.	.	.	8r	.	8cc#`\L	.	.	.	.	.	.	.	.	.
.	.	.	.	(8e/L	.	(8cc#\	.	.	.	.	.	.	.	.	.
.	.	.	.	8d/J)	.	8b\J)	.	.	.	.	.	.	.	.	.
!LO:LB:g=original	!	!LO:LB:g=original	!	!LO:LB:g=original	!	!	!	!	!	!	!	!	!	!	!
=115	=115	=115	=115	=115	=115	=115	=115	=115	=115	=115	=115	=115	=115	=115	=115
8r	.	8r	.	4c#/	.	4a/	.	.	.	.	.	.	.	.	.
(8E\L	.	(8e\L	.	.	.	.	.	.	.	.	.	.	.	.	.
8D\J)	.	8d\J)	.	8g#X/	.	8b/	.	.	.	.	.	.	.	.	.
!	!	!	!	!	!	!LO:LB:g=original	!	!	!	!	!	!	!	!	!
=116	=116	=116	=116	=116	=116	=116	=116	=116	=116	=116	=116	=116	=116	=116	=116
8C#X`/L	.	8c#X`\L	.	4a/	.	4cc#\	.	.	.	.	.	.	.	.	.
(8C#/	.	(8c#\	.	.	.	.	.	.	.	.	.	.	.	.	.
8BB/J)	.	8B\J)	.	8b/	.	8dd\	.	.	.	.	.	.	.	.	.
=117	=117	=117	=117	=117	=117	=117	=117	=117	=117	=117	=117	=117	=117	=117	=117
!	!	!	!	!	!	!	!	!LO:N:vis=00	!	!LO:N:vis=00	!	!LO:N:vis=00	!	!LO:N:vis=00	!
4AA#X/	.	4A#X/	.	4cc#\	.	8ee\L	.	1.r	.	1.r	.	1.r	.	1.r	.
.	.	.	.	.	.	(8ee\	.	.	.	.	.	.	.	.	.
8r	.	8r	.	8r	.	8dd\J)	.	.	.	.	.	.	.	.	.
=118	=118	=118	=118	=118	=118	=118	=118	=118	=118	=118	=118	=118	=118	=118	=118
4.r	.	4.r	.	8r	.	8cc#`\L	.	.	.	.	.	.	.	.	.
.	.	.	.	8e/L	.	(8cc#\	.	.	.	.	.	.	.	.	.
.	.	.	.	8d/J	.	8b\J)	.	.	.	.	.	.	.	.	.
=119	=119	=119	=119	=119	=119	=119	=119	=119	=119	=119	=119	=119	=119	=119	=119
8r	.	8r	.	4c#X/	.	4a#X/	.	.	.	.	.	.	.	.	.
(8E\L	.	(8e\L	.	.	.	.	.	.	.	.	.	.	.	.	.
8D\J)	.	8d\J)	.	8d/	.	8b/	.	.	.	.	.	.	.	.	.
=120	=120	=120	=120	=120	=120	=120	=120	=120	=120	=120	=120	=120	=120	=120	=120
8C#X/L	.	8c#X`\L	.	4a#X/	.	4cc#X\	.	.	.	.	.	.	.	.	.
8C#/	.	(8c#\	.	.	.	.	.	.	.	.	.	.	.	.	.
8C#/J	.	8B\J)	.	8b/	.	8dd\	.	.	.	.	.	.	.	.	.
=121	=121	=121	=121	=121	=121	=121	=121	=121	=121	=121	=121	=121	=121	=121	=121
!	!	!	!	!	!	!	!	!LO:N:vis=00	!	!LO:N:vis=00	!	!LO:N:vis=00	!	!LO:N:vis=00	!
4.AA#X/	.	4.A#X/	.	8cc#\L	.	8ee\L	.	1.r	.	1.r	.	1.r	.	1.r	.
.	.	.	.	8cc#\	.	8ee\	.	.	.	.	.	.	.	.	.
.	.	.	.	8cc#\J	.	8ee\J	.	.	.	.	.	.	.	.	.
=122	=122	=122	=122	=122	=122	=122	=122	=122	=122	=122	=122	=122	=122	=122	=122
4.A#X\	.	4.a#X\	.	8.ee\L	.	8.ggn\L	.	.	.	.	.	.	.	.	.
!	!	!	!	!LO:TX:a:t=problem: nieokreślony znak	!	!	!	!	!	!	!	!	!	!	!
.	.	.	.	16dd\K	.	16ff#\K	.	.	.	.	.	.	.	.	.
.	.	.	.	8cc#\J	.	8ee\J	.	.	.	.	.	.	.	.	.
=123	=123	=123	=123	=123	=123	=123	=123	=123	=123	=123	=123	=123	=123	=123	=123
4.B\	.	4.b\	.	8b\L	.	8dd\L	.	.	.	.	.	.	.	.	.
.	.	.	.	8b\	.	8dd\	.	.	.	.	.	.	.	.	.
.	.	.	.	8b\J	.	8dd\J	.	.	.	.	.	.	.	.	.
=124	=124	=124	=124	=124	=124	=124	=124	=124	=124	=124	=124	=124	=124	=124	=124
4.BB/	.	4.B/	.	8.dd\L	.	8.ff#\L	.	.	.	.	.	.	.	.	.
.	.	.	.	16cc#\K	.	16ee\K	.	.	.	.	.	.	.	.	.
.	.	.	.	8b\J	.	8dd\J	.	.	.	.	.	.	.	.	.
=125	=125	=125	=125	=125	=125	=125	=125	=125	=125	=125	=125	=125	=125	=125	=125
!	!	!	!	!	!	!	!	!LO:N:vis=0	!	!LO:N:vis=0	!	!LO:N:vis=0	!	!LO:N:vis=0	!
4A#X\	.	4A#X/	.	4ee\	.	8cc#\L	.	2.r	.	2.r	.	2.r	.	2.r	.
.	.	.	.	.	.	8ggn\	.	.	.	.	.	.	.	.	.
8B\	.	8B/	.	8dd\	.	8ff#\J	.	.	.	.	.	.	.	.	.
!	!	!LO:LB:g=original	!	!	!	!	!	!	!	!	!	!	!	!	!
=126	=126	=126	=126	=126	=126	=126	=126	=126	=126	=126	=126	=126	=126	=126	=126
.	.	.	.	8qqdd/	.	8qqff#/	.	.	.	.	.	.	.	.	.
!LO:TX:a:t=problem: mixed beam	!	!	!	!	!	!	!	!	!	!	!	!	!	!	!
8E\L	.	8gn\L	.	8cc#\L	.	8ee\L	.	.	.	.	.	.	.	.	.
8F#\	.	8f#\	.	8b\	.	8dd\	.	.	.	.	.	.	.	.	.
8FF#/J	.	8f#\J	.	8a#X\J	.	8cc#\J	.	.	.	.	.	.	.	.	.
!LO:PB:g=original	!	!	!	!LO:LB:g=original	!	!LO:LB:g=original	!	!	!	!	!	!	!	!	!
=127	=127	=127	=127	=127	=127	=127	=127	=127	=127	=127	=127	=127	=127	=127	=127
*	*	*tremolo	*	*	*	*	*	*	*	*	*	*	*	*	*
!	!LO:DY:t=fortiſ	!	!	!	!	!	!	!	!	!	!	!	!	!	!LO:DY:t=fortiſ
4BB/	ff	8d\L	f	16f#/LL	f	4.b\	f	[4.f#/	f	4.ff#\	f	4.b\	f	4.b\	ff
.	.	.	.	16f#/	.	.	.	.	.	.	.	.	.	.	.
.	.	8d\	.	16f#/	.	.	.	.	.	.	.	.	.	.	.
.	.	.	.	16f#/	.	.	.	.	.	.	.	.	.	.	.
16Dn/LL	.	8d\J	.	16f#/	.	.	.	.	.	.	.	.	.	.	.
16F#/JJ	.	.	.	16f#/JJ	.	.	.	.	.	.	.	.	.	.	.
=128	=128	=128	=128	=128	=128	=128	=128	=128	=128	=128	=128	=128	=128	=128	=128
*	*	*	*	*tremolo	*	*	*	*	*	*	*	*	*	*	*
8B`\L	.	8d\L	.	16f#/LL	.	4.bb\	.	4.f#/]	.	4.ff#\	.	4.bb\	.	4.bb\	.
.	.	.	.	16f#/	.	.	.	.	.	.	.	.	.	.	.
8F#`\	.	8d\	.	16f#/	.	.	.	.	.	.	.	.	.	.	.
.	.	.	.	16f#/	.	.	.	.	.	.	.	.	.	.	.
8D`\J	.	8d\J	.	16f#/	.	.	.	.	.	.	.	.	.	.	.
.	.	.	.	16f#/JJ	.	.	.	.	.	.	.	.	.	.	.
=129	=129	=129	=129	=129	=129	=129	=129	=129	=129	=129	=129	=129	=129	=129	=129
4.BB/	.	8d\L	.	16f#/LL	.	8r	.	4.f#/	.	4.ff#\	.	8r	.	8r	.
.	.	.	.	16f#/	.	.	.	.	.	.	.	.	.	.	.
.	.	8d\	.	16f#/	.	8ff#\L	.	.	.	.	.	8ddn\L	.	8ff#\L	.
.	.	.	.	16f#/	.	.	.	.	.	.	.	.	.	.	.
.	.	8d\J	.	16f#/	.	8ff#\J	.	.	.	.	.	8dd\J	.	8ff#\J	.
.	.	.	.	16f#/JJ	.	.	.	.	.	.	.	.	.	.	.
*	*	*Xtremolo	*	*	*	*	*	*	*	*	*	*	*	*	*
=130	=130	=130	=130	=130	=130	=130	=130	=130	=130	=130	=130	=130	=130	=130	=130
!	!	!	!	!	!	!	!	!LO:TX:a:t=9	!	!LO:TX:a:t=9	!	!	!	!	!
!	!	!	!	!	!	!	!	!LO:N:vis=00	!	!LO:N:vis=00	!	!	!	!	!
4.B\	.	8d\L	.	16f#/LL	.	8.ff#\L	.	1.r	<	1.r	.	8.dd\L	.	8.ff#\L	.
.	.	.	.	16f#/	.	.	.	.	.	.	.	.	.	.	.
.	.	8B\	.	16f#/	.	.	.	.	.	.	.	.	.	.	.
.	.	.	.	16f#/	.	16gg\K	.	.	.	.	.	16ee\K	.	16ggn\K	.
.	.	8d\J	.	16f#/	.	8ff#\J	.	.	x	.	.	8dd\J	.	8ff#\J	.
.	.	.	.	16f#/JJ	.	.	.	.	.	.	.	.	.	.	.
=131	=131	=131	=131	=131	=131	=131	=131	=131	=131	=131	=131	=131	=131	=131	=131
!	!	!	!	!LO:TX:a:t=problem: brak kreski taktowej	!	!	!	!	!	!	!	!	!	!	!
4BB/	.	8e\L	.	16gn/LL	.	4.ggn\	.	.	.	.	.	4.ee\	.	4.ggn\	.
.	.	.	.	16gn/	.	.	.	.	.	.	.	.	.	.	.
.	.	8B\	.	16gn/	.	.	.	.	.	.	.	.	.	.	.
.	.	.	.	16gn/	.	.	.	.	.	.	.	.	.	.	.
(16En\LL	.	8Gn\J	.	16gn/	.	.	.	.	.	.	.	.	.	.	.
16Gn\JJ)	.	.	.	16gn/JJ	.	.	.	.	.	.	.	.	.	.	.
=132	=132	=132	=132	=132	=132	=132	=132	=132	=132	=132	=132	=132	=132	=132	=132
8B`\L	.	8E/L	.	16g/LL	.	4.bb\	.	.	.	.	.	4.ggn\	.	4.bb\	.
.	.	.	.	16g/	.	.	.	.	.	.	.	.	.	.	.
!	!	!LO:TX:a:t=problem: mixed beam	!	!	!	!	!	!	!	!	!	!	!	!	!
8Gn`\	.	8e\	.	16g/	.	.	.	.	.	.	.	.	.	.	.
.	.	.	.	16g/	.	.	.	.	.	.	.	.	.	.	.
8E`\J	.	8e\J	.	16g/	.	.	.	.	.	.	.	.	.	.	.
.	.	.	.	16g/JJ	.	.	.	.	.	.	.	.	.	.	.
=133	=133	=133	=133	=133	=133	=133	=133	=133	=133	=133	=133	=133	=133	=133	=133
4.BB/	.	4.e\	.	16g/LL	.	8r	.	.	.	.	.	8r	.	8r	.
.	.	.	.	16g/	.	.	.	.	.	.	.	.	.	.	.
.	.	.	.	16g/	.	8ggn\L	.	.	.	.	.	8ee\L	.	8ggn\L	.
.	.	.	.	16g/	.	.	.	.	.	.	.	.	.	.	.
.	.	.	.	16g/	.	8gg\J	.	.	.	.	.	8ee\J	.	8gg\J	.
.	.	.	.	16g/JJ	.	.	.	.	.	.	.	.	.	.	.
=134	=134	=134	=134	=134	=134	=134	=134	=134	=134	=134	=134	=134	=134	=134	=134
!	!	!	!	!	!	!	!	!LO:N:vis=00	!	!LO:N:vis=00	!	!	!	!	!
4.B\	.	4.e\	.	16g/LL	.	8.gg\L	.	1.r	.	1.r	.	8.ee\L	.	8.gg\L	.
.	.	.	.	16g/	.	.	.	.	.	.	.	.	.	.	.
.	.	.	.	16g/	.	.	.	.	.	.	.	.	.	.	.
.	.	.	.	16g/	.	16aa\K	.	.	.	.	.	16ff#\K	.	16aa\K	.
.	.	.	.	16g/	.	8gg\J	.	.	.	.	.	8ee\J	.	8gg\J	.
.	.	.	.	16g/JJ	.	.	.	.	.	.	.	.	.	.	.
!	!	!	!	!	!	!	!	!	!	!	!	!	!	!LO:PB:g=original	!
=135	=135	=135	=135	=135	=135	=135	=135	=135	=135	=135	=135	=135	=135	=135	=135
4AA#X/	.	4f#X\	.	16cc#X\LL	.	4.ccc#X\	.	.	.	.	.	[4.cc#X\	.	4.ee\	.
.	.	.	.	16cc#X\	.	.	.	.	.	.	.	.	.	.	.
.	.	.	.	16cc#X\	.	.	.	.	.	.	.	.	.	.	.
.	.	.	.	16cc#X\	.	.	.	.	.	.	.	.	.	.	.
(16C#/LL	.	16c#X\LL	.	16cc#X\	.	.	.	.	.	.	.	.	.	.	.
16F#X/JJ)	.	16A#X\JJ	.	16cc#X\JJ	.	.	.	.	.	.	.	.	.	.	.
=136	=136	=136	=136	=136	=136	=136	=136	=136	=136	=136	=136	=136	=136	=136	=136
8A#X`\L	.	4F#X/	.	16ee\LL	.	4ee\	.	.	.	.	.	4.cc#\]	.	4.ee\	.
.	.	.	.	16ee\	.	.	.	.	.	.	.	.	.	.	.
8F#`\	.	.	.	16ee\	.	.	.	.	.	.	.	.	.	.	.
.	.	.	.	16ee\	.	.	.	.	.	.	.	.	.	.	.
8C#`\J	.	8r	.	16ee\	.	8r	.	.	.	.	.	.	.	.	.
.	.	.	.	16ee\JJ	.	.	.	.	.	.	.	.	.	.	.
!	!	!	!	!	!	!	!	!	!	!	!	!LO:LB:g=original	!	!	!
*	*	*	*	*	*	*	*	*	*	*	*	*	*	*	*
!LO:LB:g=original	!	!LO:LB:g=original	!	!	!	!	!	!	!	!	!	!	!	!	!
=137	=137	=137	=137	=137	=137	=137	=137	=137	=137	=137	=137	=137	=137	=137	=137
4.AA#X/	.	4.A#X/	.	16ee\LL	.	8r	.	.	.	.	.	4.ee\	.	4.ggn\	.
.	.	.	.	16ee\	.	.	.	.	.	.	.	.	.	.	.
.	.	.	.	16ee\	.	8gg\L	.	.	.	.	.	.	.	.	.
.	.	.	.	16ee\	.	.	.	.	.	.	.	.	.	.	.
.	.	.	.	16ee\	.	8gg\J	.	.	.	.	.	.	.	.	.
.	.	.	.	16ee\JJ	.	.	.	.	.	.	.	.	.	.	.
*	*	*	*	*Xtremolo	*	*	*	*	*	*	*	*	*	*	*
=138	=138	=138	=138	=138	=138	=138	=138	=138	=138	=138	=138	=138	=138	=138	=138
4.A#X\	.	4.a#X\	.	16ee\LL	.	8.gg\L	.	4.r	.	4.r	.	8ee\L	.	8gg\L	.
.	.	.	.	16ee\	.	.	.	.	.	.	.	.	.	.	.
.	.	.	.	16dd\	.	.	.	.	.	.	.	8dd\	.	8ff#\	.
.	.	.	.	16dd\	.	16ff#\K	.	.	.	.	.	.	.	.	.
.	.	.	.	16cc#\	.	8ee\J	.	.	.	.	.	8cc#\J	.	8ee\J	.
.	.	.	.	16cc#\JJ	.	.	.	.	.	.	.	.	.	.	.
!	!	!	!	!	!	!LO:PB:g=original	!	!	!	!	!	!	!	!	!
=139	=139	=139	=139	=139	=139	=139	=139	=139	=139	=139	=139	=139	=139	=139	=139
*	*	*	*	*tremolo	*	*	*	*	*	*	*	*	*	*	*
4AAn/	.	4An/	.	16b\LL	.	4.dd#X\	.	4.f#/	.	4.ff#\	.	4.b\	.	4.dd#X\	.
.	.	.	.	16b\	.	.	.	.	.	.	.	.	.	.	.
.	.	.	.	16b\	.	.	.	.	.	.	.	.	.	.	.
.	.	.	.	16b\	.	.	.	.	.	.	.	.	.	.	.
(16D#X/LL	.	16d#X\LL	.	16b\	.	.	.	.	.	.	.	.	.	.	.
16F#/JJ)	.	16f#\JJ	.	16b\JJ	.	.	.	.	.	.	.	.	.	.	.
=140	=140	=140	=140	=140	=140	=140	=140	=140	=140	=140	=140	=140	=140	=140	=140
8An`\L	.	8a\L	.	16b\LL	.	4.aa\	.	4.f#/	.	4.ff#\	.	4.b\	.	4.aa\	.
.	.	.	.	16b\	.	.	.	.	.	.	.	.	.	.	.
8F#`\	.	8f#\	.	16b\	.	.	.	.	.	.	.	.	.	.	.
.	.	.	.	16b\	.	.	.	.	.	.	.	.	.	.	.
8D#X`\J	.	8d#X\J	.	16b\	.	.	.	.	.	.	.	.	.	.	.
.	.	.	.	16b\JJ	.	.	.	.	.	.	.	.	.	.	.
!	!	!	!	!LO:LB:g=original	!	!	!	!	!	!LO:LB:g=original	!	!	!	!	!
=141	=141	=141	=141	=141	=141	=141	=141	=141	=141	=141	=141	=141	=141	=141	=141
4.AAn/	.	4.An/	.	16a/LL	.	8r	.	4.f#/	.	4.ff#\	.	8r	.	8r	.
.	.	.	.	16a/	.	.	.	.	.	.	.	.	.	.	.
.	.	.	.	16a/	.	8cccn\L	.	.	.	.	.	8aa\L	.	8cccn\L	.
.	.	.	.	16a/	.	.	.	.	.	.	.	.	.	.	.
.	.	.	.	16a/	.	8ccc\J	.	.	.	.	.	8aa\J	.	8ccc\J	.
.	.	.	.	16a/JJ	.	.	.	.	.	.	.	.	.	.	.
*	*	*	*	*Xtremolo	*	*	*	*	*	*	*	*	*	*	*
=142	=142	=142	=142	=142	=142	=142	=142	=142	=142	=142	=142	=142	=142	=142	=142
!	!	!	!	!	!	!LO:TX:a:t=sic:s=18.ccc	!	!	!	!	!	!	!	!LO:TX:a:t=sic:s=8.ccc	!
4.D#X\	.	4.d#X\	.	8.a/L	.	8.ccc#\L	.	4.f#/	.	4.ff#\	.	8.aa\L	.	8.ccc#\L	.
.	.	.	.	16g/K	.	16bbn\K	.	.	.	.	.	16ggn\K	.	16bb\K	.
.	.	.	.	8f#/J	.	8aa\J	.	.	.	.	.	8ff#\J	.	8aa\J	.
!	!	!	!	!	!	!	!	!LO:LB:g=original	!	!	!	!	!	!	!
=143	=143	=143	=143	=143	=143	=143	=143	=143	=143	=143	=143	=143	=143	=143	=143
8En\L	.	8e\L	.	4e/	.	8ggn\L	.	4.ee\	.	4.ee\	.	4ee\	.	4ggn\	.
8En\	.	8b\	.	.	.	(16ee\L	.	.	.	.	.	.	.	.	.
.	.	.	.	.	.	16ff#\	.	.	.	.	.	.	.	.	.
8En\J	.	8b\J	.	8r	.	16gg\	.	.	.	.	.	8r	.	8r	.
.	.	.	.	.	.	16aa\JJ)	.	.	.	.	.	.	.	.	.
=144	=144	=144	=144	=144	=144	=144	=144	=144	=144	=144	=144	=144	=144	=144	=144
*tremolo	*	*	*	*	*	*	*	*	*	*	*	*	*	*	*
!	!	!	!	!LO:TX:a:t=1	!	!LO:TX:a:t=problem: mixed beam	!	!	!	!	!	!LO:TX:a:t=1	!	!	!
8Gn\L	.	4.b\	.	4.r	.	8bb\L	.	4.ee\	.	4.ee\	.	4.r	.	4.bb\	.
8Gn\	.	.	.	.	.	8e/	.	.	.	.	.	.	.	.	.
8Gn\J	.	.	.	.	.	8bb\J	.	.	.	.	.	.	.	.	.
=145	=145	=145	=145	=145	=145	=145	=145	=145	=145	=145	=145	=145	=145	=145	=145
*	*	*tremolo	*	*	*	*	*	*	*	*	*	*	*	*	*
8An\L	.	8a\L	.	8r	.	4cccn\	.	4.ee\	.	4ee\	.	8r	.	4.cccn\	.
8An\	.	8a\	.	(16a\LL	.	.	.	.	.	.	.	16a/LL	.	.	.
.	.	.	.	16b\	.	.	.	.	.	.	.	16b/	.	.	.
8An\J	.	8a\J	.	16ccn\	.	8r	.	.	.	8r	.	16ccn/	.	.	.
.	.	.	.	16dd\JJ)	.	.	.	.	.	.	.	16dd/JJ	.	.	.
=146	=146	=146	=146	=146	=146	=146	=146	=146	=146	=146	=146	=146	=146	=146	=146
!	!	!	!	!LO:TX:a:t=problem: mixed beam	!	!	!	!LO:TX:a:t=1	!	!	!	!	!	!	!
8Cn/L	.	8e\L	.	8ee\L	.	8r	.	4.r	.	4.r	.	4.ee\	.	4aa\	.
8Cn/	.	8e\	.	8e/	.	8aa\L	.	.	.	.	.	.	.	.	.
8Cn/J	.	8e\J	.	8ee\J	.	8gg\J	.	.	.	.	.	.	.	8ggn\	.
!	!	!	!	!	!	!	!	!	!	!	!	!	!	!LO:LB:g=original	!
=147	=147	=147	=147	=147	=147	=147	=147	=147	=147	=147	=147	=147	=147	=147	=147
8D\L	.	8d\L	.	4.ff#X\	.	8ff#X\L	.	4.d/	.	4.dd\	.	4dd\	.	4.ff#X\	.
8D\	.	8d\	.	.	.	16dd\L	.	.	.	.	.	.	.	.	.
.	.	.	.	.	.	16ee\	.	.	.	.	.	.	.	.	.
8D\J	.	8d\J	.	.	.	16ff#\	.	.	.	.	.	8r	.	.	.
.	.	.	.	.	.	16gg\JJ	.	.	.	.	.	.	.	.	.
!	!	!LO:LB:g=original	!	!	!	!LO:LB:g=original	!	!	!	!	!	!	!	!	!
=148	=148	=148	=148	=148	=148	=148	=148	=148	=148	=148	=148	=148	=148	=148	=148
!	!	!	!	!	!	!LO:TX:a:t=problem: mixed beam	!	!	!	!	!	!	!	!	!
8F#X\L	.	8a\L	.	8r	.	8aa\L	.	4.d/	.	4.dd\	.	8r	.	4.aa\	.
8F#X\	.	8a\	.	8dd\L	.	8d/	.	.	.	.	.	8dd\L	.	.	.
8F#X\J	.	8a\J	.	8ccn\J	.	8aa\J	.	.	.	.	.	8ccn\J	.	.	.
!LO:LB:g=original	!	!	!	!	!	!	!	!	!	!	!	!LO:LB:g=original	!	!	!
=149	=149	=149	=149	=149	=149	=149	=149	=149	=149	=149	=149	=149	=149	=149	=149
!	!	!	!	!LO:TX:a:t=problem: mixed beam	!	!	!	!	!	!	!	!	!	!	!
8G\L	.	8g\L	.	8b\L	.	4bbn\	.	4d/	.	4dd\	.	8b/L	.	4bb\	.
8G\	.	8g\	.	16G/L	.	.	.	.	.	.	.	16gn/L	.	.	.
.	.	.	.	16A/	.	.	.	.	.	.	.	16a/	.	.	.
8G\J	.	8g\J	.	16Bn/	.	8r	.	8r	.	8r	.	16b/	.	8r	.
.	.	.	.	16cn/JJ	.	.	.	.	.	.	.	16ccn/JJ	.	.	.
=150	=150	=150	=150	=150	=150	=150	=150	=150	=150	=150	=150	=150	=150	=150	=150
!	!	!	!	!	!	!	!	!LO:TX:a:t=6	!	!LO:TX:a:t=6	!	!	!	!	!
!	!	!	!	!	!	!	!	!LO:N:vis=00	!	!LO:N:vis=00	!	!	!	!	!
8BBn/L	.	8Bn/L	.	8d/L	.	8r	.	1.r	.	1.r	.	8dd\L	.	8r	.
8BBn/	.	8Bn/	.	8G/	.	8gg\L	.	.	.	.	.	8g\	.	8gg\L	.
8BBn/J	.	8Bn/J	.	8g/J	.	8ffn\J	.	.	.	.	.	8dd\J	.	8ffn\J	.
!	!	!	!	!LO:PB:g=original	!	!	!	!	!	!	!	!	!	!	!
=151	=151	=151	=151	=151	=151	=151	=151	=151	=151	=151	=151	=151	=151	=151	=151
*Xtremolo	*	*	*	*tremolo	*	*tremolo	*	*	*	*	*	*	*	*	*
8Cn/L	.	8cn\L	.	16ccn\LL	.	16ee\LL	.	.	.	.	.	4.ccn\	.	4.ee\	.
.	.	.	.	16ccn\	.	16ee\	.	.	.	.	.	.	.	.	.
(16C/	.	16c\L	.	16ccn\	.	16ee\	.	.	.	.	.	.	.	.	.
16D/	.	16d\	.	16ccn\	.	16ee\	.	.	.	.	.	.	.	.	.
16E/	.	16e\	.	16ccn\	.	16ee\	.	.	.	.	.	.	.	.	.
16Fn/J)	.	16fn\JJ	.	16ccn\JJ	.	16ee\JJ	.	.	.	.	.	.	.	.	.
=152	=152	=152	=152	=152	=152	=152	=152	=152	=152	=152	=152	=152	=152	=152	=152
8Gn\L	.	8g\L	.	16ee\LL	.	16cccn\LL	.	.	.	.	.	4.ee\	.	4.cccn\	.
.	.	.	.	16ee\	.	16ccc\	.	.	.	.	.	.	.	.	.
8Cn\	.	8cn\	.	16ee\	.	16ccc\	.	.	.	.	.	.	.	.	.
.	.	.	.	16ee\	.	16ccc\	.	.	.	.	.	.	.	.	.
!LO:TX:a:t=sic:s=8c	!	!	!	!	!	!	!	!	!	!	!	!	!	!	!
8c#\J	.	8ccn\J	.	16ee\	.	16ccc\	.	.	.	.	.	.	.	.	.
.	.	.	.	16ee\JJ	.	16ccc\JJ	.	.	.	.	.	.	.	.	.
=153	=153	=153	=153	=153	=153	=153	=153	=153	=153	=153	=153	=153	=153	=153	=153
!	!	!	!	!	!	!	!	!	!	!	!	!	!	!LO:TX:a:t=sic:s=4.ccc	!
8F#X\L	.	8a\L	.	16dd\LL	.	16ccc#\LL	.	.	.	.	.	4.dd\	.	4.ccc#\	.
.	.	.	.	16dd\	.	16ccc#\	.	.	.	.	.	.	.	.	.
8F#\	.	8a\	.	16dd\	.	16ccc#\	.	.	.	.	.	.	.	.	.
.	.	.	.	16dd\	.	16ccc#\	.	.	.	.	.	.	.	.	.
8F#\J	.	8a\J	.	16dd\	.	16ccc#\	.	.	.	.	.	.	.	.	.
.	.	.	.	16dd\JJ	.	16ccc#\JJ	.	.	.	.	.	.	.	.	.
=154	=154	=154	=154	=154	=154	=154	=154	=154	=154	=154	=154	=154	=154	=154	=154
*tremolo	*	*	*	*	*	*	*	*	*	*	*	*	*	*	*
!	!	!	!	!	!	!	!	!LO:N:vis=0	!	!LO:N:vis=0	!	!	!	!	!
8G\L	.	8g\L	.	16dd\LL	.	16bbn\LL	.	2.r	.	2.r	.	4.gg\	.	4.bbn\	.
.	.	.	.	16dd\	.	16bb\	.	.	.	.	.	.	.	.	.
8G\	.	8g\	.	16dd\	.	16bb\	.	.	.	.	.	.	.	.	.
.	.	.	.	16dd\	.	16bb\	.	.	.	.	.	.	.	.	.
8G\J	.	8g\J	.	16dd\	.	16bb\	.	.	.	.	.	.	.	.	.
.	.	.	.	16dd\JJ	.	16bb\JJ	.	.	.	.	.	.	.	.	.
=155	=155	=155	=155	=155	=155	=155	=155	=155	=155	=155	=155	=155	=155	=155	=155
!	!	!LO:TX:a:t=sic:s=4.Cn	!	!	!	!	!	!	!	!	!	!	!	!	!
8Cn/L	.	8c#\L	.	16ee\LL	.	16aa\LL	.	.	.	.	.	4.ee\	.	4.aa\	.
.	.	.	.	16ee\	.	16aa\	.	.	.	.	.	.	.	.	.
8Cn/	.	8c#\	.	16ee\	.	16aa\	.	.	.	.	.	.	.	.	.
.	.	.	.	16ee\	.	16aa\	.	.	.	.	.	.	.	.	.
8Cn/J	.	8c#\J	.	16ee\	.	16aa\	.	.	.	.	.	.	.	.	.
.	.	.	.	16ee\JJ	.	16aa\JJ	.	.	.	.	.	.	.	.	.
=156	=156	=156	=156	=156	=156	=156	=156	=156	=156	=156	=156	=156	=156	=156	=156
!LO:TX:a:t=sic:s=4c#	!	!	!	!	!	!	!	!	!	!	!	!	!	!	!
4D/	.	8c#X\L	.	16ee\LL	.	16ggn\LL	.	4a/	.	4ee\	.	4.ee\	.	4gg\	.
*	*	*	*	*Xtremolo	*	*	*	*	*	*	*	*	*	*	*
.	.	.	.	16ee\	.	16gg\	.	.	.	.	.	.	.	.	.
.	.	8c#X\	.	16ee\	.	16gg\	.	.	.	.	.	.	.	.	.
.	.	.	.	16ee\	.	16gg\	.	.	.	.	.	.	.	.	.
8r	.	8c#X\J	.	16ee\	.	16gg\	.	8r	.	8r	.	.	.	8r	.
.	.	.	.	16ee\JJ	.	16gg\JJ	.	.	.	.	.	.	.	.	.
*	*	*	*	*	*	*Xtremolo	*	*	*	*	*	*	*	*	*
=157	=157	=157	=157	=157	=157	=157	=157	=157	=157	=157	=157	=157	=157	=157	=157
4D/	.	4d\	.	16ff#\LL	.	16ff#\LL	.	4d/	.	4dd\	.	4dd\	.	4ff#X\	.
.	.	.	.	16ddd\	.	16ddd\	.	.	.	.	.	.	.	.	.
.	.	.	.	16ccc#X\	.	16ccc#Xi\	.	.	.	.	.	.	.	.	.
.	.	.	.	16bb\	.	16bb\	.	.	.	.	.	.	.	.	.
8r	.	8r	.	16aa\	.	16aa\	.	8r	.	8r	.	8r	.	8r	.
.	.	.	.	16gg\JJ	.	16gg\JJ	.	.	.	.	.	.	.	.	.
!	!	!	!	!	!	!LO:LB:g=original	!	!	!	!	!	!	!	!	!
=158	=158	=158	=158	=158	=158	=158	=158	=158	=158	=158	=158	=158	=158	=158	=158
!LO:TX:a:t=problem:brak taktu	!	!	!	!	!	!	!	!	!	!	!	!	!	!	!
4D/yy	.	4d\	.	16ff#\LL	.	16ff#\LL	.	4d/	.	4dd\	.	4dd\	.	4ff#\	.
.	.	.	.	16bb\	.	16bb\	.	.	.	.	.	.	.	.	.
.	.	.	.	16aa\	.	16aa\	.	.	.	.	.	.	.	.	.
.	.	.	.	16gg\	.	16gg\	.	.	.	.	.	.	.	.	.
8ryy	.	8r	.	16ff#\	.	16ff#\	.	8r	.	8r	.	8r	.	8r	.
.	.	.	.	16ee\JJ	.	16ee\JJ	.	.	.	.	.	.	.	.	.
!	!	!LO:LB:g=original	!	!	!	!	!	!	!	!LO:LB:g=original	!	!	!	!LO:LB:g=original	!
=159	=159	=159	=159	=159	=159	=159	=159	=159	=159	=159	=159	=159	=159	=159	=159
16D\LL	.	16d\LL	.	16dd\LL	.	16dd\LL	.	4d/	.	4dd\	.	16dd\LL	.	16dd\LL	.
16d\	.	16dd\	.	16dd\	.	16dd\	.	.	.	.	.	16dd\	.	16dd\	.
16c#X\	.	16cc#X\	.	16cc#X\	.	16cc#\	.	.	.	.	.	16cc#X\	.	16cc#X\	.
16B\	.	16b\	.	16b\	.	16b\	.	.	.	.	.	16b\	.	16b\	.
16A\	.	16a\	.	16a\	.	16a\	.	8r	.	8r	.	16a\	.	16a\	.
16G\JJ	.	16g\JJ	.	16g\JJ	.	16gn\JJ	.	.	.	.	.	16g\JJ	.	16g\JJ	.
!LO:LB:g=original	!	!	!	!LO:LB:g=original	!	!	!	!	!	!	!	!	!	!	!
=160	=160	=160	=160	=160	=160	=160	=160	=160	=160	=160	=160	=160	=160	=160	=160
16F#\LL	.	16f#\LL	.	16f#/LL	.	16f#'/LL	.	4d/	.	4dd\	.	16f#/LL	.	16f#X/LL	.
16A\	.	16a\	.	16a/	.	16a'/	.	.	.	.	.	16a/	.	16a/	.
16G\	.	16g\	.	16g/	.	16g'/	.	.	.	.	.	16g/	.	16g/	.
16F#\	.	16f#\	.	16f#/	.	16f#'/	.	.	.	.	.	16f#/	.	16f#/	.
16E\	.	16e\	.	16e/	.	16e'/	.	8r	.	8r	.	16e/	.	16e/	.
16D\JJ	.	16d\JJ	.	16d/JJ	.	16d'/JJ	.	.	.	.	.	16d/JJ	.	16d/JJ	.
!	!	!	!	!	!	!	!	!LO:LB:g=original	!	!	!	!LO:LB:g=original	!	!	!
=161	=161	=161	=161	=161	=161	=161	=161	=161	=161	=161	=161	=161	=161	=161	=161
!	!	!	!	!	!	!	!	!	!	!	!	!	!	!LO:TX:a:t=problem: mixed beam	!
8A\L	.	8a\L	.	8A/L	.	8A/L	.	8a/L	.	8ee\L	.	8a/L	.	8a/L	.
8E\	.	8e\	.	8a/	.	8a/	.	8a/	.	8ee\	.	8a/	.	8aa\	.
8C#X\J	.	8c#\J	.	8a/J	.	8a/J	.	8a/J	.	8ee\J	.	8a/J	.	8aa\J	.
=162	=162	=162	=162	=162	=162	=162	=162	=162	=162	=162	=162	=162	=162	=162	=162
!LO:TX:a:t=problem: mixed beam	!	!LO:TX:a:t=problem: mixed beam	!	!	!	!	!	!	!	!	!	!	!	!	!
8AA/L	.	8A'/L	p	4A/ 4a	.	4a/	.	4a/	.	4ee\	.	4a/	.	4aa\	.
(>16A\	p	16a\	.	.	.	.	.	.	.	.	.	.	.	.	.
16Gn\	.	16g\	.	.	.	.	.	.	.	.	.	.	.	.	.
16F#\	.	16f#\	.	8r	.	8r	.	8r	.	8r	.	8r	.	8r	.
16E\J)	.	16e\J	.	.	.	.	.	.	.	.	.	.	.	.	.
=163	=163	=163	=163	=163	=163	=163	=163	=163	=163	=163	=163	=163	=163	=163	=163
!	!	!	!	!	!	!	!	!LO:TX:a:t=24	!	!LO:TX:a:t=24	!	!LO:TX:a:t=24	!	!LO:TX:a:t=24	!
!	!	!	!LO:DY:t=p:	!LO:N:vis=0	!	!	!	!LO:N:vis=00	!	!LO:N:vis=00	!	!LO:N:vis=00	!	!LO:N:vis=00	!
4D\	.	4d\	p	2.r	.	8r	.	1.r	.	1.r	.	1.r	.	1.r	.
!	!	!	!	!	!	!	!LO:DY:t=pia:	!	!	!	!	!	!	!	!
.	.	.	.	.	.	8aa\L	p	.	.	.	.	.	.	.	.
8r	.	8r	.	.	.	8aa\J	.	.	.	.	.	.	.	.	.
=164	=164	=164	=164	=164	=164	=164	=164	=164	=164	=164	=164	=164	=164	=164	=164
4D\	.	4f#\	.	.	.	8aa'\L	.	.	.	.	.	.	.	.	.
.	.	.	.	.	.	(16bb\	.	.	.	.	.	.	.	.	.
.	.	.	.	.	.	16aa\	.	.	.	.	.	.	.	.	.
8r	.	8r	.	.	.	16ggni\	.	.	.	.	.	.	.	.	.
.	.	.	.	.	.	16ff#\J)	.	.	.	.	.	.	.	.	.
=165	=165	=165	=165	=165	=165	=165	=165	=165	=165	=165	=165	=165	=165	=165	=165
.	.	.	.	.	.	8qqff#/	.	.	.	.	.	.	.	.	.
4.E\	.	[4.B/	.	8r	.	8gg\L	.	.	.	.	.	.	.	.	.
.	.	.	.	8dd\L	p	8gg\	.	.	.	.	.	.	.	.	.
.	.	.	.	8dd\J	.	8gg\J	.	.	.	.	.	.	.	.	.
!	!	!	!	!	!	!LO:LB:g=original	!	!	!	!	!	!	!	!	!
=166	=166	=166	=166	=166	=166	=166	=166	=166	=166	=166	=166	=166	=166	=166	=166
4.F#\	.	4.B/]	.	8dd\L	.	4gg\	.	.	.	.	.	.	.	.	.
.	.	.	.	16ee\L	.	.	.	.	.	.	.	.	.	.	.
.	.	.	.	16dd\	.	.	.	.	.	.	.	.	.	.	.
.	.	.	.	16cc#X\	.	8r	.	.	.	.	.	.	.	.	.
.	.	.	.	16b\JJ	.	.	.	.	.	.	.	.	.	.	.
=167	=167	=167	=167	=167	=167	=167	=167	=167	=167	=167	=167	=167	=167	=167	=167
!	!	!	!	!	!	!	!	!LO:N:vis=00	!	!LO:N:vis=00	!	!LO:N:vis=00	!	!LO:N:vis=00	!
4.A\	.	(4.e\	.	(4.cc#X\	.	8r	.	1.r	.	1.r	.	1.r	.	1.r	.
.	.	.	.	.	.	8gg\L	.	.	.	.	.	.	.	.	.
.	.	.	.	.	.	8gg\J	.	.	.	.	.	.	.	.	.
*Xtremolo	*	*	*	*	*	*	*	*	*	*	*	*	*	*	*
=168	=168	=168	=168	=168	=168	=168	=168	=168	=168	=168	=168	=168	=168	=168	=168
4.C#X/	.	4.a\)	.	4.r)	.	8gg`\L	.	.	.	.	.	.	.	.	.
.	.	.	.	.	.	16aa\	.	.	.	.	.	.	.	.	.
.	.	.	.	.	.	(16gg\	.	.	.	.	.	.	.	.	.
.	.	.	.	.	.	16ff#\	.	.	.	.	.	.	.	.	.
.	.	.	.	.	.	16ee\J)	.	.	.	.	.	.	.	.	.
!	!	!LO:LB:g=original	!	!	!	!	!	!	!	!	!	!	!	!	!
=169	=169	=169	=169	=169	=169	=169	=169	=169	=169	=169	=169	=169	=169	=169	=169
.	.	.	.	.	.	8qqee/	.	.	.	.	.	.	.	.	.
4.D\	.	4.d\	.	8r	.	8ff#\L	.	.	.	.	.	.	.	.	.
.	.	.	.	8a/L	.	8ff#\	.	.	.	.	.	.	.	.	.
.	.	.	.	8a/J	.	8ff#\J	.	.	.	.	.	.	.	.	.
=170	=170	=170	=170	=170	=170	=170	=170	=170	=170	=170	=170	=170	=170	=170	=170
4.F#\	.	4.d\	.	8a/L	.	4ff#\	.	.	.	.	.	.	.	.	.
.	.	.	.	(16gn/L	.	.	.	.	.	.	.	.	.	.	.
.	.	.	.	16f#/	.	.	.	.	.	.	.	.	.	.	.
.	.	.	.	16e/	.	8r	.	.	.	.	.	.	.	.	.
.	.	.	.	16d/JJ)	.	.	.	.	.	.	.	.	.	.	.
!	!	!	!	!LO:LB:g=original	!	!	!	!	!	!	!	!	!	!	!
=171	=171	=171	=171	=171	=171	=171	=171	=171	=171	=171	=171	=171	=171	=171	=171
!	!	!	!	!	!	!	!	!LO:N:vis=00	!	!LO:N:vis=00	!	!LO:N:vis=00	!	!LO:N:vis=00	!
4.G\	.	(4.G/	.	(4.b\	.	8r	.	1.r	.	1.r	.	1.r	.	1.r	.
.	.	.	.	.	.	(8dd#X\L	.	.	.	.	.	.	.	.	.
.	.	.	.	.	.	[8ee\J)	.	.	.	.	.	.	.	.	.
!LO:LB:g=original	!	!	!	!	!	!	!	!	!	!	!	!	!	!	!
=172	=172	=172	=172	=172	=172	=172	=172	=172	=172	=172	=172	=172	=172	=172	=172
4.F#\	.	4.F#/)	.	4.a/	.	8ee\L]	.	.	.	.	.	.	.	.	.
.	.	.	.	.	.	8cc#X\	.	.	.	.	.	.	.	.	.
.	.	.	.	.	.	8dd\J	.	.	.	.	.	.	.	.	.
=173	=173	=173	=173	=173	=173	=173	=173	=173	=173	=173	=173	=173	=173	=173	=173
4.E\	.	4.c#X\	.	4.a/)	.	8r	.	.	.	.	.	.	.	.	.
.	.	.	.	.	.	8ff#X\L	.	.	.	.	.	.	.	.	.
.	.	.	.	.	.	[8gg\J	.	.	.	.	.	.	.	.	.
=174	=174	=174	=174	=174	=174	=174	=174	=174	=174	=174	=174	=174	=174	=174	=174
4.D\	.	4.d\	.	4.a/	.	8gg\L]	.	.	.	.	.	.	.	.	.
.	.	.	.	.	.	(8ee#X\	.	.	.	.	.	.	.	.	.
.	.	.	.	.	.	8ff#\J)	.	.	.	.	.	.	.	.	.
=175	=175	=175	=175	=175	=175	=175	=175	=175	=175	=175	=175	=175	=175	=175	=175
!	!	!	!	!	!	!	!	!LO:N:vis=00	!	!LO:N:vis=00	!	!LO:N:vis=00	!	!LO:N:vis=00	!
[4.G\	.	[4.g\	.	[4.bn\	.	8r	.	1.r	.	1.r	.	1.r	.	1.r	.
.	.	.	.	.	.	8een\L	.	.	.	.	.	.	.	.	.
.	.	.	.	.	.	8ee\J	.	.	.	.	.	.	.	.	.
!	!	!	!	!	!	!LO:LB:g=original	!	!	!	!	!	!	!	!	!
=176	=176	=176	=176	=176	=176	=176	=176	=176	=176	=176	=176	=176	=176	=176	=176
4.G\]	.	4.g\]	.	4.b\]	.	8.ggn\L	.	.	.	.	.	.	.	.	.
.	.	.	.	.	.	16ff#\K	.	.	.	.	.	.	.	.	.
.	.	.	.	.	.	8ee\J	.	.	.	.	.	.	.	.	.
=177	=177	=177	=177	=177	=177	=177	=177	=177	=177	=177	=177	=177	=177	=177	=177
4.G\	.	4.g\	.	[4.b\	.	8r	.	.	.	.	.	.	.	.	.
.	.	.	.	.	.	8ee\L	.	.	.	.	.	.	.	.	.
.	.	.	.	.	.	8ee\J	.	.	.	.	.	.	.	.	.
=178	=178	=178	=178	=178	=178	=178	=178	=178	=178	=178	=178	=178	=178	=178	=178
(4.G\	.	4.g\	.	4.b\]	.	8.bb\L	.	.	.	.	.	.	.	.	.
.	.	.	.	.	.	16ggn\K	.	.	.	.	.	.	.	.	.
.	.	.	.	.	.	8ee\J	.	.	.	.	.	.	.	.	.
=179	=179	=179	=179	=179	=179	=179	=179	=179	=179	=179	=179	=179	=179	=179	=179
!	!	!	!	!	!	!	!	!LO:N:vis=00	!	!LO:N:vis=00	!	!LO:N:vis=00	!	!LO:N:vis=00	!
8A\L)	.	8f#\L	.	4.dd\	.	4.dd\	.	1.r	.	1.r	.	1.r	.	1.r	.
8A\	.	8f#\	.	.	.	.	.	.	.	.	.	.	.	.	.
8A\J	.	8f#\J	.	.	.	.	.	.	.	.	.	.	.	.	.
=180	=180	=180	=180	=180	=180	=180	=180	=180	=180	=180	=180	=180	=180	=180	=180
*tremolo	*	*	*	*	*	*	*	*	*	*	*	*	*	*	*
!	!	!	!	!LO:TX:a:t=t	!	!LO:TX:a:t=t	!	!	!	!	!	!	!	!	!
8AA/L	.	8e\L	.	4.cc#X\	.	4.ee\	.	.	.	.	.	.	.	.	.
8AA/	.	8e\	.	.	.	.	.	.	.	.	.	.	.	.	.
8AA/J	.	8e\J	.	.	.	.	.	.	.	.	.	.	.	.	.
*Xtremolo	*	*Xtremolo	*	*	*	*	*	*	*	*	*	*	*	*	*
=181	=181	=181	=181	=181	=181	=181	=181	=181	=181	=181	=181	=181	=181	=181	=181
4D\	.	4d\	.	8r	.	8r	.	.	.	.	.	.	.	.	.
.	.	.	.	8dd\L	.	8ff#\L	<	.	.	.	.	.	.	.	.
8r	.	8r	.	8dd\J	.	8ff#\J	.	.	.	.	.	.	.	.	.
=182	=182	=182	=182	=182	=182	=182	=182	=182	=182	=182	=182	=182	=182	=182	=182
8r	.	8r	.	8.dd\L	<	8.ff#\L	.	.	.	.	.	.	.	.	.
8D/L	<	8d\L	.	.	.	.	.	.	.	.	.	.	.	.	.
.	.	.	.	16ee\K	.	16gg\K	.	.	.	.	.	.	.	.	.
8C#/J	.	8c#X\J	<	8dd\J	.	8ff#\J	.	.	.	.	.	.	.	.	.
!	!	!LO:LB:g=original	!	!	!	!	!	!	!	!	!	!	!	!	!
=183	=183	=183	=183	=183	=183	=183	=183	=183	=183	=183	=183	=183	=183	=183	=183
!	!	!	!	!	!	!	!	!LO:N:vis=00	!	!LO:N:vis=00	!	!LO:N:vis=00	!	!LO:N:vis=00	!
4.BB/	.	4B/	.	8r	.	8r	.	1.r	.	1.r	.	1.r	.	1.r	.
.	.	.	.	8dd'\L	.	8ff#'\L	.	.	.	.	.	.	.	.	.
.	.	8r	.	8dd'\J	.	8ff#'\J	.	.	.	.	.	.	.	.	.
!	!	!	!	!LO:LB:g=original	!	!	!	!	!	!	!	!	!	!	!
=184	=184	=184	=184	=184	=184	=184	=184	=184	=184	=184	=184	=184	=184	=184	=184
8r	.	8r	.	8.dd\L	.	8.ff#\L	.	.	.	.	.	.	.	.	.
8BB/L	.	8B/L	.	.	.	.	.	.	.	.	.	.	.	.	.
.	.	.	.	16ee\K	.	16gg\K	.	.	.	.	.	.	.	.	.
8AA/J	.	8A/J	.	8dd\J	.	8ff#\J	.	.	.	.	.	.	.	.	.
=185	=185	=185	=185	=185	=185	=185	=185	=185	=185	=185	=185	=185	=185	=185	=185
4.GG/	.	(4.B/	.	8r	.	8r	.	.	.	.	.	.	.	.	.
.	.	.	.	8dd'\L	.	8ee'\L	.	.	.	.	.	.	.	.	.
.	.	.	.	8dd'\J	.	8ee'\J	.	.	.	.	.	.	.	.	.
!LO:LB:g=original	!	!	!	!	!	!	!	!	!	!	!	!	!	!	!
=186	=186	=186	=186	=186	=186	=186	=186	=186	=186	=186	=186	=186	=186	=186	=186
4.AA/	.	4.A/)	.	8r	.	8r	.	.	.	.	.	.	.	.	.
.	.	.	.	8cc#X'\L	.	8ee'\L	.	.	.	.	.	.	.	.	.
.	.	.	.	8cc#'\J	.	8ee'\J	.	.	.	.	.	.	.	.	.
!	!	!	!	!	!	!LO:LB:g=original	!	!	!	!	!	!	!	!	!
=187	=187	=187	=187	=187	=187	=187	=187	=187	=187	=187	=187	=187	=187	=187	=187
!	!	!	!LO:DY:t=rinfor	!	!	!	!	!	!	!	!	!	!	!	!
!	!	!	!	!	!LO:DY:t=rinfor	!	!	!	!	!	!	!	!	!	!LO:HP:t=crescendo
4D\	f	4d\	rf	8r	rf	8r	.	4.d/	<	4.dd\	<	4.dd\	<	4.ff#X\	<
!	!	!	!	!	!	!	!LO:DY:t=fortiſ	!	!	!	!	!	!	!	!
.	.	.	.	8dd\L	.	8ff#\L	ff	.	.	.	.	.	.	.	.
16F#\LL	.	16f#\LL	.	8dd\J	.	8ff#\J	.	.	.	.	.	.	.	.	.
16A\JJ	.	16a\JJ	.	.	.	.	.	.	.	.	.	.	.	.	.
=188	=188	=188	=188	=188	=188	=188	=188	=188	=188	=188	=188	=188	=188	=188	=188
!LO:TX:a:t=problem: mixed beam	!	!LO:TX:a:t=problem: mixed beam	!	!	!	!	!	!	!	!	!	!	!	!	!
8d\L	.	8dd\L	.	8.dd\L	.	8.ff#\L	.	4.d/	.	4.dd\	.	8.dd\L	.	8.ff#\L	.
8D/	.	8d/	.	.	.	.	.	.	.	.	.	.	.	.	.
.	.	.	.	16ee\K	.	16gg\K	.	.	.	.	.	16ee\K	.	16gg\K	.
8C#X/J	.	8c#/J	.	8dd\J	.	8ff#\J	.	.	.	.	.	8dd\J	.	8ff#\J	.
=189	=189	=189	=189	=189	=189	=189	=189	=189	=189	=189	=189	=189	=189	=189	=189
4BB/	.	4B/	.	8r	.	8r	.	4.d/	.	4.dd\	.	4.dd\	.	4.ff#\	.
.	.	.	.	8dd\L	.	8ff#\L	.	.	.	.	.	.	.	.	.
16D\LL	.	16d\LL	.	8dd\J	.	8ff#\J	.	.	.	.	.	.	.	.	.
16F#\JJ	.	16f#X\JJ	.	.	.	.	.	.	.	.	.	.	.	.	.
=190	=190	=190	=190	=190	=190	=190	=190	=190	=190	=190	=190	=190	=190	=190	=190
!LO:TX:a:t=problem: mixed beam	!	!LO:TX:a:t=problem: mixed beam	!	!	!	!	!	!	!	!	!	!	!	!	!
8B\L	.	8b\L	.	8.dd\L	.	8.ff#\L	.	4.d/	.	4.dd\	.	8.dd\L	.	8.ff#\L	.
8BB/	.	8B/	.	.	.	.	.	.	.	.	.	.	.	.	.
.	.	.	.	16ee\K	.	16gg\K	.	.	.	.	.	16ee\K	.	16gg\K	.
8AA/J	.	8A/J	.	8dd\J	.	8ff#\J	.	.	.	.	.	8dd\J	.	8ff#\J	.
=191	=191	=191	=191	=191	=191	=191	=191	=191	=191	=191	=191	=191	=191	=191	=191
*	*	*	*	*tremolo	*	*	*	*	*	*	*	*	*	*	*
!LO:TX:a:t=problem: mixed beam	!	!LO:TX:a:t=problem:mixed beam	!	!	!	!	!	!LO:TX:a:t=1	!	!LO:TX:a:t=1	!	!	!	!	!
8GG/L	.	8G/L	.	16dd\LL	.	16een\LL	.	4.r	.	4.r	.	8ee\L	.	8ee\L	.
.	.	.	.	16dd\	.	16ee\	.	.	.	.	.	.	.	.	.
8G\	.	8g\	.	16dd\	.	16bb\	.	.	.	.	.	8gg\	.	8bb\	.
.	.	.	.	16dd\	.	16bb\	.	.	.	.	.	.	.	.	.
8F#X\J	.	8f#\J	.	16dd\	.	16aa\	.	.	.	.	.	8ff#\J	.	8aa\J	.
.	.	.	.	16dd\JJ	.	16aa\JJ	.	.	.	.	.	.	.	.	.
!	!	!	!	!	!	!	!	!	!	!	!	!	!	!LO:LB:g=original	!
*	*	*	*	*Xtremolo	*	*	*	*	*	*	*	*	*	*	*
=192	=192	=192	=192	=192	=192	=192	=192	=192	=192	=192	=192	=192	=192	=192	=192
!LO:TX:a:t=problem: mixed beam	!	!LO:TX:a:t=problem: mixed beam	!	!	!	!	!	!	!	!	!	!	!	!	!
8G/L	.	8g\L	.	16ee\LL	.	16ggn\LL	.	8ee\L	f	8gg\L	.	8ee\L	.	8gg\L	.
.	.	.	.	16ee\	.	16gg\	.	.	.	.	.	.	.	.	.
8A/	.	8a\	.	16dd\	.	16ff#\	.	8dd\	.	8ff#\	.	8dd\	.	8ff#\	.
.	.	.	.	16dd\	.	16ff#\	.	.	.	.	.	.	.	.	.
8AA\J	.	8A/J	.	16cc#\	.	16ee\	.	8a\J	.	8ee\J	.	8cc#\J	.	8ee\J	.
.	.	.	.	16cc#\JJ	.	16ee\JJ	.	.	.	.	.	.	.	.	.
!	!	!LO:LB:g=original	!	!LO:LB:g=original	!	!	!	!	!	!LO:LB:g=original	!	!	!	!	!
=193	=193	=193	=193	=193	=193	=193	=193	=193	=193	=193	=193	=193	=193	=193	=193
!	!	!	!LO:DY:t=fortiſ	!	!LO:DY:t=fortiſ	!	!	!	!	!	!	!	!	!LO:TX:a:t=problem: mixed beam	!LO:DY:t=fortiſsimo
8.D\L	f	8.dd\L	ff	8.dd/L	ff	8.dd\L	f	4d/	.	4dd\	f	8.dd\L	f	8.dd\L	ff
16A\L	.	16a\L	.	16a/L	.	16a\L	.	.	.	.	.	16a\L	.	16a/L	.
16B\	.	16b\	.	16b/	.	16b\	.	8r	.	8r	.	16b\	.	16b/	.
16c#\JJ	.	16cc#X\JJ	.	16cc#/JJ	.	16cc#X\JJ	.	.	.	.	.	16cc#X\JJ	.	16cc#/JJ	.
!	!	!	!	!	!	!	!	!LO:LB:g=original	!	!	!	!LO:LB:g=original	!	!	!
=194	=194	=194	=194	=194	=194	=194	=194	=194	=194	=194	=194	=194	=194	=194	=194
16d\LL	.	16dd\LL	.	16dd\LL	.	16dd\LL	.	4d/	.	4dd\	.	16dd\LL	.	16dd\LL	.
16c#\	.	16cc#X\	.	16cc#X\	.	16cc#X\	.	.	.	.	.	16cc#X\	.	16cc#\	.
16d\	.	16dd\	.	16dd\	.	16dd\	.	.	.	.	.	16dd\	.	16dd\	.
16c#\	.	16cc#\	.	16cc#\	.	16cc#\	.	.	.	.	.	16cc#\	.	16cc#\	.
16B\	.	16b\	.	16b\	.	16b\	.	8r	.	8r	.	16b\	.	16b\	.
16A#X\JJ	.	16a#X\JJ	.	16a#X\JJ	.	16a#X\JJ	.	.	.	.	.	16a#X\JJ	.	16a#X\JJ	.
!LO:LB:g=original	!	!	!	!	!	!LO:LB:g=original	!	!	!	!	!	!	!	!	!
=195	=195	=195	=195	=195	=195	=195	=195	=195	=195	=195	=195	=195	=195	=195	=195
8.B\L	.	8.b\L	.	8.b~/L	.	8.b\L	.	4d/	.	4dd\	.	8.b/L	.	8.b/L	.
16F#\L	.	16f#\L	.	16f#/L	.	16f#\L	.	.	.	.	.	16f#/L	.	16f#/L	.
!LO:TX:a:t=sic:s=16G#	!	!LO:TX:a:t=sic:s=16g#	!	!	!	!	!	!	!	!	!	!LO:TX:a:t=sic:s=16g#	!	!	!
16G\	.	16g\	.	16g#X/	.	16g#X\	.	8r	.	8r	.	16g/	.	16g#X/	.
16A#X\JJ	.	16a#X\JJ	.	16a#X/JJ	.	16a#X\JJ	.	.	.	.	.	16a#X/JJ	.	16a#X/JJ	.
=196	=196	=196	=196	=196	=196	=196	=196	=196	=196	=196	=196	=196	=196	=196	=196
16B\LL	.	16b\LL	.	16b/LL	.	16b/LL	.	4d/	.	4dd\	.	16b/LL	.	16b/LL	.
16A#X\	.	16a#X\	.	16a#X/	.	16a#X/	.	.	.	.	.	16a#X/	.	16a#X/	.
16B\	.	16b\	.	16b/	.	16b/	.	.	.	.	.	16b/	.	16b/	.
16An\	.	16an\	.	16an/	.	16an/	.	.	.	.	.	16an/	.	16an/	.
16Gn\	.	16g\	.	16g/	.	16gn/	.	8r	.	8r	.	16g/	.	16g/	.
16F#\JJ	.	16f#\JJ	.	16f#/JJ	.	16f#/JJ	.	.	.	.	.	16f#/JJ	.	16f#/JJ	.
=197	=197	=197	=197	=197	=197	=197	=197	=197	=197	=197	=197	=197	=197	=197	=197
*	*	*tremolo	*	*tremolo	*	*tremolo	*	*	*	*	*	*	*	*	*
8G\L	.	8g\L	.	16ee\LL	.	16ddd\LL	.	4.dd\	.	4.ee\	.	4.dd\	.	4.ee\	.
.	.	.	.	16ee\	.	16ddd\	.	.	.	.	.	.	.	.	.
8G\	.	8g\	.	16ee\	.	16ddd\	.	.	.	.	.	.	.	.	.
.	.	.	.	16ee\	.	16ddd\	.	.	.	.	.	.	.	.	.
8G\J	.	8g\J	.	16ee\	.	16ddd\	.	.	.	.	.	.	.	.	.
.	.	.	.	16ee\JJ	.	16ddd\JJ	.	.	.	.	.	.	.	.	.
*	*	*	*	*	*	*	*	*	*	*	*	*	*	*	*
=198	=198	=198	=198	=198	=198	=198	=198	=198	=198	=198	=198	=198	=198	=198	=198
!LO:TX:a:t=problem: mixed beam	!	!	!	!	!	!	!	!	!	!	!	!	!	!	!
8A\L	.	8a\L	.	16ee\LL	.	16ccc#X\LL	.	4.a/	.	4.ee\	.	4.ee\	.	4.ccc#\	.
.	.	.	.	16ee\	.	16ccc#\	.	.	.	.	.	.	.	.	.
8G\	.	8a\	.	16ee\	.	16ccc#\	.	.	.	.	.	.	.	.	.
.	.	.	.	16ee\	.	16ccc#\	.	.	.	.	.	.	.	.	.
8AA/J	.	8a\J	.	16ee\	.	16ccc#\	.	.	.	.	.	.	.	.	.
.	.	.	.	16ee\JJ	.	16ccc#\JJ	.	.	.	.	.	.	.	.	.
*	*	*Xtremolo	*	*Xtremolo	*	*Xtremolo	*	*	*	*	*	*	*	*	*
=199	=199	=199	=199	=199	=199	=199	=199	=199	=199	=199	=199	=199	=199	=199	=199
8D/L	.	8d\L	.	8d/L 8a 8ff#	.	8ff#\L 8ddd	.	8d/L	.	8dd\L	.	8ff#X\L	.	8ddd\L	.
8AA/	.	8A\	.	8d/ 8a 8ff#	.	8ff#\ 8ddd	.	8d/	.	8dd\	.	8ff#\	.	8ddd\	.
8FF#/J	.	8F#\J	.	8d/J 8a 8ff#	.	8ff#\J 8ddd	.	8d/J	.	8dd\J	.	8ff#\J	.	8ddd\J	.
=200	=200	=200	=200	=200	=200	=200	=200	=200	=200	=200	=200	=200	=200	=200	=200
!	!	!	!	!	!	!	!	!LO:TX:b:i:t=Fine	!	!	!	!	!	!	!
4DD/	.	4D/	.	4d/ 4a 4ff#	.	4ff#\ 4ddd	.	4d/	.	4dd\	.	4ff#\	.	4ddd\	.
!LO:TX:b:i:t=Fine	!	!LO:TX:b:i:t=Fine	!	!LO:TX:b:t=Fine	!	!LO:TX:b:i:t=Fine	!	!	!	!LO:TX:b:i:t=Fine	!	!LO:TX:b:i:t=Fine	!	!LO:TX:b:i:t=Fine	!
8r	.	8r	.	8r	.	8r	.	8r	.	8r	.	8r	.	8r	.
=:|!	=:|!	=:|!	=:|!	=:|!	=:|!	=:|!	=:|!	=:|!	=:|!	=:|!	=:|!	=:|!	=:|!	=:|!	=:|!
*-	*-	*-	*-	*-	*-	*-	*-	*-	*-	*-	*-	*-	*-	*-	*-
!!!system-decoration: [(g1)][(g2)][(g3)]
!!!RDF**kern: i = editorial accidental
!!!RDF**kern: >= above
!!!RDF**kern: <= below
!!!RDF**dynam: f=for
!!!RDF**dynam: p=pia
!!!RDF**dynam: cresc. = cres.
!!!AIN: 3 empty 2 oboe 1 viola 2 violn
!!!ENC: Anna Matuszewska
!!!END: 2020-07-13
